;Fusion 360 CAM 2.0.12392
; Posts processor: MPCNC.cps
; Gcode generated: Saturday, April 23, 2022 8:50:13 PM GMT
; Document: Untitled v1
; Setup: Setup8
;When using Fusion 360 for Personal Use, the feedrate of
;rapid moves is reduced to match the feedrate of cutting
;moves, which can increase machining time. Unrestricted rapid
;moves are available with a Fusion 360 Subscription.
; 
; Ranges Table:
;   X: Min=-195.881 Max=195.138 Size=391.02
;   Y: Min=-89.066 Max=102.893 Size=191.959
;   Z: Min=-5.468 Max=30 Size=35.468
; 
; Tools Table:
;  T1 D=3 CR=0 TAPER=30deg - ZMIN=-5.468 - chamfer mill 
; 
; Feedrate and Scaling Properties:
;   Feed: Travel speed X/Y = 2500
;   Feed: Travel Speed Z = 300
;   Feed: Enforce Feedrate = true
;   Feed: Scale Feedrate = false
;   Feed: Max XY Cut Speed = 900
;   Feed: Max Z Cut Speed = 180
;   Feed: Max Toolpath Speed = 1000
; 
; G1->G0 Mapping Properties:
;   Map: First G1 -> G0 Rapid = false
;   Map: G1s -> G0 Rapids = false
;   Map: SafeZ Mode = Retract : default = 15
;   Map: Allow Rapid Z = false
; 
; *** START begin ***
;   Set Absolute Positioning
;   Units = mm
;   Disable stepper timeout
;   Set current position to 0,0,0
G90
G21
M84 S0
G92 X0 Y0 Z0
; *** START end ***
; 
; *** SECTION begin ***
;   X Min: -195.881 - X Max: 195.138
;   Y Min: -89.066 - Y Max: 102.893
;   Z Min: -5.468 - Z Max: 30
; Engrave2 - Milling - Tool: 1 -  chamfer mill
; COMMAND_START_SPINDLE
; COMMAND_SPINDLE_CLOCKWISE
; >>> Spindle Speed: Manual
M0 Turn ON 5000RPM
; COMMAND_COOLANT_ON
; >>> WARNING: No matching Coolant channel : Flood requested
M117  Engrave2
; MOVEMENT_CUTTING
G1 X-195.881 Y-89.066 Z30 F1000
G1 Z5 F1000
; MOVEMENT_LEAD_IN
G1 Z-0.001 F1000
; MOVEMENT_CUTTING
G1 X-192.725 Y-85.909 Z-5.468 F1000
G1 X-173.088 F1000
G1 X-171.399 Y-85.857 F1000
G1 X-170.557 Y-85.823 F1000
G1 X-169.726 Y-85.779 F1000
G1 X-168.909 Y-85.724 F1000
G1 X-168.108 Y-85.654 F1000
G1 X-167.323 Y-85.566 F1000
G1 X-166.552 Y-85.459 F1000
G1 X-165.791 Y-85.329 F1000
G1 X-165.025 Y-85.174 F1000
G1 X-164.249 Y-84.996 F1000
G1 X-163.463 Y-84.797 F1000
G1 X-162.665 Y-84.581 F1000
G1 X-161.859 Y-84.351 F1000
G1 X-160.356 Y-83.905 F1000
G1 X-159.238 Y-83.438 F1000
G1 X-158.641 Y-83.179 F1000
G1 X-158.062 Y-82.915 F1000
G1 X-157.509 Y-82.649 F1000
G1 X-156.984 Y-82.376 F1000
G1 X-156.486 Y-82.095 F1000
G1 X-156.018 Y-81.805 F1000
G1 X-155.571 Y-81.498 F1000
G1 X-155.129 Y-81.163 F1000
G1 X-154.682 Y-80.796 F1000
G1 X-154.228 Y-80.399 F1000
G1 X-153.768 Y-79.974 F1000
G1 X-153.305 Y-79.53 F1000
G1 X-152.533 Y-78.764 F1000
G1 X-152.01 Y-78.011 F1000
G1 X-151.707 Y-77.555 F1000
G1 X-151.429 Y-77.113 F1000
G1 X-151.181 Y-76.689 F1000
G1 X-150.965 Y-76.284 F1000
G1 X-150.784 Y-75.895 F1000
G1 X-150.635 Y-75.521 F1000
G1 X-150.511 Y-75.138 F1000
G1 X-150.402 Y-74.723 F1000
G1 X-150.31 Y-74.274 F1000
G1 X-150.229 Y-73.786 F1000
G1 X-150.161 Y-73.269 F1000
G1 X-150.104 Y-72.726 F1000
G1 X-150.011 Y-71.658 F1000
G1 Y-68.087 F1000
G1 X-150.081 Y-66.986 F1000
G1 X-150.125 Y-66.451 F1000
G1 X-150.183 Y-65.943 F1000
G1 X-150.251 Y-65.47 F1000
G1 X-150.335 Y-65.038 F1000
G1 X-150.441 Y-64.617 F1000
G1 X-150.488 Y-64.46 F1000
G1 X-150.546 Y-64.29 F1000
G1 X-150.61 Y-64.123 F1000
G1 X-150.677 Y-63.963 F1000
G1 X-150.755 Y-63.8 F1000
G1 X-150.833 Y-63.648 F1000
G1 X-151.052 Y-63.265 F1000
G1 X-151.299 Y-62.881 F1000
G1 X-151.584 Y-62.474 F1000
G1 X-151.899 Y-62.052 F1000
G1 X-152.44 Y-61.362 F1000
G1 X-152.982 Y-60.898 F1000
G1 X-153.735 Y-60.286 F1000
G1 X-154.075 Y-60.027 F1000
G1 X-154.415 Y-59.785 F1000
G1 X-154.747 Y-59.567 F1000
G1 X-155.071 Y-59.373 F1000
G1 X-155.398 Y-59.199 F1000
G1 X-155.749 Y-59.032 F1000
G1 X-156.128 Y-58.87 F1000
G1 X-156.534 Y-58.712 F1000
G1 X-156.964 Y-58.557 F1000
G1 X-157.414 Y-58.404 F1000
G1 X-158.404 Y-58.086 F1000
G2 X-158.177 Y-52.011 I0.965 J3.006 F1000
G1 X-157.751 Y-51.838 F1000
G1 X-157.025 Y-51.526 F1000
G1 X-156.716 Y-51.381 F1000
G1 X-156.415 Y-51.23 F1000
G1 X-156.137 Y-51.078 F1000
G1 X-155.879 Y-50.924 F1000
G1 X-155.628 Y-50.759 F1000
G1 X-155.371 Y-50.574 F1000
G1 X-155.101 Y-50.368 F1000
G1 X-154.835 Y-50.152 F1000
G1 X-154.238 Y-49.635 F1000
G1 X-153.839 Y-49.275 F1000
G1 X-153.472 Y-48.784 F1000
G1 X-153.242 Y-48.461 F1000
G1 X-153.036 Y-48.155 F1000
G1 X-152.864 Y-47.876 F1000
G1 X-152.723 Y-47.62 F1000
G1 X-152.613 Y-47.388 F1000
G1 X-152.525 Y-47.164 F1000
G1 X-152.451 Y-46.927 F1000
G1 X-152.384 Y-46.656 F1000
G1 X-152.325 Y-46.345 F1000
G1 X-152.275 Y-46 F1000
G1 X-152.234 Y-45.625 F1000
G1 X-152.2 Y-45.22 F1000
G1 X-152.146 Y-44.393 F1000
G1 Y-40.505 F1000
G1 X-152.231 Y-39.798 F1000
G1 X-152.342 Y-38.945 F1000
G1 X-152.466 Y-38.138 F1000
G1 X-152.611 Y-37.363 F1000
G1 X-152.686 Y-37.024 F1000
G1 X-152.771 Y-36.686 F1000
G1 X-152.863 Y-36.363 F1000
G1 X-152.96 Y-36.059 F1000
G1 X-153.066 Y-35.767 F1000
G1 X-153.177 Y-35.495 F1000
G1 X-153.294 Y-35.241 F1000
G1 X-153.421 Y-34.996 F1000
G1 X-153.558 Y-34.762 F1000
G1 X-153.713 Y-34.524 F1000
G1 X-153.885 Y-34.281 F1000
G1 X-154.076 Y-34.035 F1000
G1 X-154.283 Y-33.786 F1000
G1 X-154.508 Y-33.535 F1000
G1 X-154.751 Y-33.277 F1000
G1 X-154.997 Y-33.03 F1000
G1 X-155.573 Y-32.489 F1000
G1 X-156.187 Y-31.948 F1000
G1 X-156.847 Y-31.394 F1000
G1 X-157.258 Y-31.055 F1000
G1 X-158.998 Y-30.201 F1000
G1 X-159.994 Y-29.734 F1000
G1 X-160.98 Y-29.298 F1000
G1 X-161.966 Y-28.896 F1000
G1 X-162.433 Y-28.721 F1000
G1 X-162.911 Y-28.552 F1000
G1 X-163.385 Y-28.397 F1000
G1 X-163.855 Y-28.256 F1000
G1 X-164.326 Y-28.128 F1000
G1 X-164.804 Y-28.012 F1000
G1 X-165.289 Y-27.906 F1000
G1 X-165.78 Y-27.811 F1000
G1 X-166.281 Y-27.726 F1000
G1 X-166.775 Y-27.652 F1000
G1 X-167.83 Y-27.523 F1000
G1 X-168.897 Y-27.426 F1000
G1 X-169.992 Y-27.353 F1000
G1 X-171.105 Y-27.299 F1000
G1 X-173.371 Y-27.223 F1000
G1 X-192.725 F1000
G1 X-195.881 Y-24.067 Z-0.001 F1000
G1 X-192.725 Y-27.223 Z-5.468 F1000
G1 Y-85.909 F1000
G1 Z5 F1000
G1 X-182.369 Y-79.96 F1000
; MOVEMENT_LEAD_IN
G1 Z-5.468 F1000
; MOVEMENT_CUTTING
G3 X-179.632 Y-81.545 I2.737 J1.573 F1000
G1 X-173.318 F1000
G3 X-173.215 Y-81.543 J3.157 F1000
G1 X-172.219 Y-81.51 F1000
G3 X-172.139 Y-81.507 I-0.103 J3.155 F1000
G1 X-171.15 Y-81.449 F1000
G3 X-171.041 Y-81.441 I-0.183 J3.152 F1000
G1 X-170.551 Y-81.396 F1000
G3 X-170.45 Y-81.385 I-0.292 J3.144 F1000
G1 X-169.965 Y-81.324 F1000
G3 X-169.844 Y-81.306 I-0.393 J3.132 F1000
G1 X-169.363 Y-81.227 F1000
G3 X-169.221 Y-81.2 I-0.514 J3.115 F1000
G1 X-168.746 Y-81.099 F1000
G3 X-168.584 Y-81.06 I-0.656 J3.088 F1000
G1 X-168.116 Y-80.935 F1000
G3 X-167.952 Y-80.886 I-0.818 J3.049 F1000
G1 X-167.49 Y-80.735 F1000
G3 X-167.345 Y-80.683 I-0.982 J3 F1000
G1 X-166.89 Y-80.509 F1000
G3 X-166.775 Y-80.463 I-1.127 J2.949 F1000
G1 X-166.325 Y-80.27 F1000
G3 X-166.234 Y-80.229 I-1.242 J2.902 F1000
G1 X-165.788 Y-80.022 F1000
G3 X-165.722 Y-79.99 I-1.333 J2.862 F1000
G1 X-165.279 Y-79.771 F1000
G3 X-165.226 Y-79.744 I-1.399 J2.83 F1000
G1 X-164.344 Y-79.287 F1000
G3 X-163.602 Y-78.754 I-1.452 J2.803 F1000
G1 X-162.989 Y-78.161 F1000
G3 X-162.925 Y-78.098 I-2.194 J2.27 F1000
G1 X-162.63 Y-77.796 F1000
G3 X-162.558 Y-77.72 I-2.258 J2.207 F1000
G1 X-162.276 Y-77.411 F1000
G3 X-162.176 Y-77.296 I-2.33 J2.13 F1000
G1 X-161.913 Y-76.979 F1000
G3 X-161.795 Y-76.827 I-2.43 J2.015 F1000
G1 X-161.555 Y-76.499 F1000
G3 X-161.424 Y-76.307 I-2.548 J1.864 F1000
G1 X-161.212 Y-75.965 F1000
G3 X-161.075 Y-75.723 I-2.678 J1.671 F1000
G1 X-160.894 Y-75.367 F1000
G3 X-160.775 Y-75.104 I-2.815 J1.429 F1000
G1 X-160.627 Y-74.731 F1000
G3 X-160.544 Y-74.495 I-2.934 J1.166 F1000
G1 X-160.425 Y-74.108 F1000
G3 X-160.371 Y-73.912 I-3.017 J0.929 F1000
G1 X-160.276 Y-73.513 F1000
G3 X-160.239 Y-73.336 I-3.071 J0.733 F1000
G1 X-160.166 Y-72.928 F1000
G3 X-160.146 Y-72.801 I-3.108 J0.556 F1000
G1 X-160.089 Y-72.385 F1000
G3 X-160.078 Y-72.291 I-3.128 J0.429 F1000
G1 X-160.033 Y-71.869 F1000
G3 X-160.025 Y-71.785 I-3.139 J0.335 F1000
G1 X-159.957 Y-70.931 F1000
G3 X-159.947 Y-70.68 I-3.147 J0.251 F1000
G1 Y-67.523 F1000
G3 X-160.058 Y-66.694 I-3.157 F1000
G1 X-160.282 Y-65.871 F1000
G3 X-160.297 Y-65.816 I-3.046 J-0.829 F1000
G1 X-160.533 Y-65.007 F1000
G3 X-160.556 Y-64.932 I-3.031 J-0.884 F1000
G1 X-160.682 Y-64.536 F1000
G3 X-160.705 Y-64.468 I-3.008 J-0.959 F1000
G1 X-160.838 Y-64.082 F1000
G3 X-160.87 Y-63.994 I-2.985 J-1.027 F1000
G1 X-161.012 Y-63.618 F1000
G3 X-161.052 Y-63.516 I-2.953 J-1.115 F1000
G1 X-161.204 Y-63.152 F1000
G3 X-161.258 Y-63.029 I-2.913 J-1.217 F1000
G1 X-161.422 Y-62.679 F1000
G3 X-161.491 Y-62.542 I-2.859 J-1.34 F1000
G1 X-161.668 Y-62.207 F1000
G3 X-161.754 Y-62.055 I-2.79 J-1.477 F1000
G1 X-161.945 Y-61.738 F1000
G3 X-162.056 Y-61.566 I-2.704 J-1.629 F1000
G1 X-162.263 Y-61.268 F1000
G3 X-162.405 Y-61.08 I-2.593 J-1.802 F1000
G1 X-162.63 Y-60.803 F1000
G3 X-162.798 Y-60.613 I-2.451 J-1.99 F1000
G1 X-163.041 Y-60.358 F1000
G3 X-163.248 Y-60.16 I-2.283 J-2.18 F1000
G1 X-163.512 Y-59.93 F1000
G3 X-163.723 Y-59.76 I-2.076 J-2.378 F1000
G1 X-164.006 Y-59.553 F1000
G3 X-164.217 Y-59.412 I-1.865 J-2.547 F1000
G1 X-164.518 Y-59.226 F1000
G3 X-164.72 Y-59.112 I-1.654 J-2.689 F1000
G1 X-165.038 Y-58.947 F1000
G3 X-165.233 Y-58.855 I-1.452 J-2.803 F1000
G1 X-165.568 Y-58.709 F1000
G3 X-165.74 Y-58.64 I-1.257 J-2.896 F1000
G1 X-166.089 Y-58.513 F1000
G3 X-166.249 Y-58.459 I-1.085 J-2.965 F1000
G1 X-166.612 Y-58.348 F1000
G3 X-166.756 Y-58.307 I-0.925 J-3.019 F1000
G1 X-167.132 Y-58.211 F1000
G3 X-167.256 Y-58.182 I-0.781 J-3.059 F1000
G1 X-167.643 Y-58.1 F1000
G3 X-167.753 Y-58.079 I-0.657 J-3.088 F1000
G1 X-168.151 Y-58.009 F1000
G3 X-168.243 Y-57.994 I-0.547 J-3.109 F1000
G1 X-168.649 Y-57.935 F1000
G3 X-168.731 Y-57.924 I-0.455 J-3.124 F1000
G1 X-169.146 Y-57.874 F1000
G3 X-169.239 Y-57.865 I-0.373 J-3.135 F1000
G1 X-170.088 Y-57.789 F1000
G3 X-170.173 Y-57.783 I-0.28 J-3.145 F1000
G1 X-171.04 Y-57.729 F1000
G3 X-171.081 Y-57.727 I-0.195 J-3.151 F1000
G1 X-171.957 Y-57.684 F1000
G3 X-172.111 Y-57.68 I-0.154 J-3.153 F1000
G1 X-179.632 F1000
G3 X-182.789 Y-60.838 J-3.157 F1000
G1 Y-78.387 F1000
G3 X-182.369 Y-79.96 I3.157 F1000
G1 Z5 F1000
G1 X-179.931 Y-54.323 F1000
; MOVEMENT_LEAD_IN
G1 Z-5.468 F1000
; MOVEMENT_CUTTING
G3 X-179.632 Y-54.337 I0.299 J3.143 F1000
G1 X-172.854 F1000
G3 X-172.728 Y-54.335 J3.157 F1000
G1 X-171.972 Y-54.305 F1000
G3 X-171.884 Y-54.3 I-0.126 J3.155 F1000
G1 X-171.135 Y-54.249 F1000
G3 X-171.011 Y-54.238 I-0.214 J3.15 F1000
G1 X-170.641 Y-54.198 F1000
G3 X-170.528 Y-54.184 I-0.338 J3.139 F1000
G1 X-170.162 Y-54.131 F1000
G3 X-170.024 Y-54.108 I-0.451 J3.125 F1000
G1 X-169.663 Y-54.04 F1000
G3 X-169.505 Y-54.005 I-0.589 J3.102 F1000
G1 X-169.149 Y-53.919 F1000
G3 X-168.967 Y-53.868 I-0.747 J3.067 F1000
G1 X-168.618 Y-53.761 F1000
G3 X-168.435 Y-53.698 I-0.929 J3.017 F1000
G1 X-168.092 Y-53.569 F1000
G3 X-167.933 Y-53.504 I-1.112 J2.955 F1000
G1 X-167.597 Y-53.357 F1000
G3 X-167.477 Y-53.301 I-1.271 J2.89 F1000
G1 X-167.144 Y-53.137 F1000
G3 X-167.006 Y-53.066 I-1.391 J2.834 F1000
G1 X-166.353 Y-52.704 F1000
G3 X-166.261 Y-52.651 I-1.529 J2.762 F1000
G1 X-165.615 Y-52.265 F1000
G3 X-164.896 Y-51.674 I-1.621 J2.709 F1000
G1 X-164.437 Y-51.168 F1000
G3 X-164.382 Y-51.106 I-2.34 J2.119 F1000
G1 X-164.161 Y-50.848 F1000
G3 X-164.094 Y-50.767 I-2.395 J2.057 F1000
G1 X-163.884 Y-50.505 F1000
G3 X-163.803 Y-50.4 I-2.462 J1.976 F1000
G1 X-163.802 Y-50.399 F1000
G1 X-163.606 Y-50.132 F1000
G3 X-163.502 Y-49.982 I-2.543 J1.871 F1000
G1 X-163.323 Y-49.707 F1000
G3 X-163.21 Y-49.519 I-2.647 J1.72 F1000
G1 X-163.052 Y-49.235 F1000
G3 X-162.934 Y-48.999 I-2.76 J1.533 F1000
G1 X-162.801 Y-48.704 F1000
G3 X-162.709 Y-48.476 I-2.878 J1.298 F1000
G1 X-162.599 Y-48.17 F1000
G3 X-162.526 Y-47.941 I-2.97 J1.069 F1000
G1 X-162.439 Y-47.626 F1000
G3 X-162.395 Y-47.445 I-3.043 J0.84 F1000
G1 X-162.326 Y-47.122 F1000
G3 X-162.296 Y-46.964 I-3.087 J0.659 F1000
G1 X-162.243 Y-46.634 F1000
G3 X-162.226 Y-46.516 I-3.117 J0.501 F1000
G1 X-162.185 Y-46.181 F1000
G3 X-162.176 Y-46.094 I-3.134 J0.383 F1000
G1 X-162.144 Y-45.755 F1000
G3 X-162.138 Y-45.679 I-3.143 J0.296 F1000
G1 X-162.09 Y-44.994 F1000
G3 X-162.082 Y-44.773 I-3.149 J0.221 F1000
G1 Y-41.43 F1000
G3 X-162.175 Y-40.67 I-3.157 F1000
G1 X-162.375 Y-39.864 F1000
G3 X-162.388 Y-39.813 I-3.064 J-0.761 F1000
G1 X-162.599 Y-39.02 F1000
G3 X-162.619 Y-38.948 I-3.051 J-0.812 F1000
G1 X-162.732 Y-38.561 F1000
G3 X-162.753 Y-38.492 I-3.031 J-0.884 F1000
G1 X-162.873 Y-38.113 F1000
G3 X-162.9 Y-38.032 I-3.01 J-0.953 F1000
G1 X-163.028 Y-37.663 F1000
G3 X-163.068 Y-37.553 I-2.983 J-1.034 F1000
G1 X-163.207 Y-37.195 F1000
G3 X-163.255 Y-37.079 I-2.943 J-1.143 F1000
G1 X-163.405 Y-36.734 F1000
G3 X-163.466 Y-36.603 I-2.895 J-1.259 F1000
G1 X-163.628 Y-36.273 F1000
G3 X-163.712 Y-36.112 I-2.834 J-1.391 F1000
G1 X-163.889 Y-35.799 F1000
G3 X-163.991 Y-35.63 I-2.75 J-1.551 F1000
G1 X-164.183 Y-35.335 F1000
G3 X-164.313 Y-35.149 I-2.648 J-1.719 F1000
G1 X-164.522 Y-34.873 F1000
G3 X-164.682 Y-34.679 I-2.518 J-1.905 F1000
G1 X-164.909 Y-34.424 F1000
G3 X-165.105 Y-34.222 I-2.358 J-2.099 F1000
G1 X-165.352 Y-33.99 F1000
G3 X-165.566 Y-33.806 I-2.162 J-2.301 F1000
G1 X-165.833 Y-33.597 F1000
G3 X-166.044 Y-33.445 I-1.948 J-2.485 F1000
G1 X-166.329 Y-33.257 F1000
G3 X-166.534 Y-33.133 I-1.737 J-2.636 F1000
G1 X-166.836 Y-32.966 F1000
G3 X-167.033 Y-32.865 I-1.532 J-2.76 F1000
G1 X-167.352 Y-32.716 F1000
G3 X-167.532 Y-32.639 I-1.335 J-2.861 F1000
G1 X-167.866 Y-32.508 F1000
G3 X-168.029 Y-32.449 I-1.155 J-2.938 F1000
G1 X-168.377 Y-32.334 F1000
G3 X-168.524 Y-32.289 I-0.992 J-2.997 F1000
G1 X-168.885 Y-32.189 F1000
G3 X-169.012 Y-32.156 I-0.845 J-3.042 F1000
G1 X-169.384 Y-32.069 F1000
G3 X-169.495 Y-32.045 I-0.718 J-3.074 F1000
G1 X-169.877 Y-31.97 F1000
G3 X-169.975 Y-31.953 I-0.607 J-3.098 F1000
G1 X-170.367 Y-31.889 F1000
G3 X-170.449 Y-31.877 I-0.509 J-3.116 F1000
G1 X-170.849 Y-31.822 F1000
G3 X-170.945 Y-31.81 I-0.427 J-3.128 F1000
G1 X-171.765 Y-31.724 F1000
G3 X-171.853 Y-31.716 I-0.331 J-3.14 F1000
G1 X-172.692 Y-31.651 F1000
G3 X-172.734 Y-31.648 I-0.243 J-3.148 F1000
G1 X-173.581 Y-31.594 F1000
G3 X-173.782 Y-31.588 I-0.201 J-3.151 F1000
G1 X-179.632 F1000
G3 X-182.789 Y-34.745 J-3.157 F1000
G1 Y-51.18 F1000
G3 X-179.931 Y-54.323 I3.157 F1000
G1 Z5 F1000
G1 X-134.688 Y-24.067 F1000
; MOVEMENT_LEAD_IN
G1 Z-0.001 F1000
; MOVEMENT_CUTTING
G1 X-131.532 Y-27.223 Z-5.468 F1000
G1 X-97.361 F1000
G1 X-94.204 Y-24.067 Z-0.001 F1000
G1 X-97.361 Y-27.223 Z-5.468 F1000
G1 Y-32.609 F1000
G1 X-94.204 Y-35.766 Z-0.001 F1000
G1 X-97.361 Y-32.609 Z-5.468 F1000
G1 X-118.439 F1000
G3 X-121.596 Y-35.766 J-3.157 F1000
G1 Y-50.345 F1000
G3 X-118.439 Y-53.502 I3.157 F1000
G1 X-99.311 F1000
G1 X-96.154 Y-50.345 Z-0.001 F1000
G1 X-99.311 Y-53.502 Z-5.468 F1000
G1 Y-58.795 F1000
G1 X-96.154 Y-61.951 Z-0.001 F1000
G1 X-99.311 Y-58.795 Z-5.468 F1000
G1 X-118.439 F1000
G3 X-121.596 Y-61.952 J-3.157 F1000
G1 Y-77.088 F1000
G3 X-118.439 Y-80.245 I3.157 F1000
G1 X-97.361 F1000
G1 Y-85.909 F1000
G1 X-131.532 F1000
G1 Y-27.223 F1000
G1 Z5 F1000
G1 X-97.36 Y-80.244 F1000
; MOVEMENT_LEAD_IN
G1 Z-5.467 F1000
; MOVEMENT_CUTTING
G1 X-94.204 Y-77.088 Z-0.001 F1000
G1 Z5 F1000
G1 X-97.36 Y-85.91 F1000
; MOVEMENT_LEAD_IN
G1 Z-5.467 F1000
; MOVEMENT_CUTTING
G1 X-94.204 Y-89.066 Z-0.001 F1000
G1 Z5 F1000
G1 X-134.688 F1000
; MOVEMENT_LEAD_IN
G1 Z-0.001 F1000
; MOVEMENT_CUTTING
G1 X-131.532 Y-85.91 Z-5.467 F1000
G1 Z5 F1000
G1 X-87.331 Y-24.067 F1000
; MOVEMENT_LEAD_IN
G1 Z-0.001 F1000
; MOVEMENT_CUTTING
G1 X-83.625 Y-27.223 Z-5.468 F1000
G1 X-73.968 F1000
G1 X-71.176 Y-24.067 Z-0.001 F1000
G1 X-73.968 Y-27.223 Z-5.468 F1000
G1 X-68.087 Y-75.151 F1000
G3 X-61.842 Y-75.302 I3.134 J0.385 F1000
G1 X-53.565 Y-27.223 F1000
G1 X-56.225 Y-24.067 Z-0.001 F1000
G1 X-53.565 Y-27.223 Z-5.468 F1000
G1 X-38.833 F1000
G1 X-36.168 Y-24.067 Z-0.001 F1000
G1 X-38.833 Y-27.223 Z-5.468 F1000
G1 X-30.644 Y-75.296 F1000
G3 X-24.398 Y-75.145 I3.112 J0.53 F1000
G1 X-18.605 Y-27.223 F1000
G1 X-21.403 Y-24.067 Z-0.001 F1000
G1 X-18.605 Y-27.223 Z-5.468 F1000
G1 X-10.037 F1000
G1 X-6.361 Y-24.067 Z-0.001 F1000
G1 X-10.037 Y-27.223 Z-5.468 F1000
G1 X-19.008 Y-85.909 F1000
G1 X-35.608 F1000
G1 X-38.303 Y-89.066 Z-0.001 F1000
G1 X-35.608 Y-85.909 Z-5.468 F1000
G1 X-43.264 Y-37.685 F1000
G3 X-49.497 Y-37.669 I-3.118 J-0.495 F1000
G1 X-57.42 Y-85.909 F1000
G1 X-54.74 Y-89.066 Z-0.001 F1000
G1 X-57.42 Y-85.909 Z-5.468 F1000
G1 X-74.151 F1000
G1 X-76.839 Y-89.066 Z-0.001 F1000
G1 X-74.151 Y-85.909 Z-5.468 F1000
G1 X-83.625 Y-27.223 F1000
G1 Z5 F1000
G1 X-19.007 Y-85.91 F1000
; MOVEMENT_LEAD_IN
G1 Z-5.467 F1000
; MOVEMENT_CUTTING
G1 X-16.297 Y-89.066 Z-0.001 F1000
G1 Z5 F1000
G1 X-4.039 F1000
; MOVEMENT_LEAD_IN
G1 Z-0.001 F1000
; MOVEMENT_CUTTING
G1 X0.146 Y-85.909 Z-5.468 F1000
G1 X16.913 Y-27.223 F1000
G1 X14.533 Y-24.067 Z-0.001 F1000
G1 X16.913 Y-27.223 Z-5.468 F1000
G1 X33.822 F1000
G1 X36.167 Y-24.067 Z-0.001 F1000
G1 X33.822 Y-27.223 Z-5.468 F1000
G1 X51.512 Y-85.909 F1000
G1 X55.76 Y-89.066 Z-0.001 F1000
G1 X51.512 Y-85.909 Z-5.468 F1000
G1 X41.624 F1000
G1 X39.233 Y-89.066 Z-0.001 F1000
G1 X41.624 Y-85.909 Z-5.468 F1000
G1 X38.279 Y-74.005 F1000
G3 X35.239 Y-71.702 I-3.039 J-0.854 F1000
G1 X15.739 F1000
G3 X12.68 Y-74.079 J-3.157 F1000
G1 X9.665 Y-85.909 F1000
G1 X12.117 Y-89.066 Z-0.001 F1000
G1 X9.665 Y-85.909 Z-5.468 F1000
G1 X0.146 F1000
G1 Z5 F1000
G1 X16.734 Y-65.249 F1000
; MOVEMENT_LEAD_IN
G1 Z-5.468 F1000
; MOVEMENT_CUTTING
G3 X18.711 Y-65.945 I1.977 J2.462 F1000
G1 X32.082 F1000
G3 X35.151 Y-62.046 J3.157 F1000
G1 X28.372 Y-34.003 F1000
G3 X22.23 Y-34.022 I-3.069 J-0.742 F1000
G1 X15.637 Y-62.065 F1000
G3 X16.734 Y-65.249 I3.073 J-0.723 F1000
G1 Z5 F1000
G1 X77.259 Y-54.517 F1000
; MOVEMENT_LEAD_IN
G1 Z-5.468 F1000
; MOVEMENT_CUTTING
G3 X80.368 Y-57.123 I3.109 J0.551 F1000
G1 X87.518 F1000
G3 X87.666 Y-57.12 J3.157 F1000
G1 X88.518 Y-57.08 F1000
G3 X88.609 Y-57.074 I-0.148 J3.154 F1000
G1 X89.453 Y-57.01 F1000
G3 X89.579 Y-56.998 I-0.239 J3.148 F1000
G1 X89.996 Y-56.949 F1000
G3 X90.113 Y-56.934 I-0.365 J3.136 F1000
G1 X90.525 Y-56.87 F1000
G3 X90.664 Y-56.845 I-0.482 J3.12 F1000
G1 X91.071 Y-56.764 F1000
G3 X91.235 Y-56.726 I-0.621 J3.095 F1000
G1 X91.635 Y-56.623 F1000
G3 X91.819 Y-56.57 I-0.785 J3.058 F1000
G1 X92.211 Y-56.443 F1000
G3 X92.396 Y-56.377 I-0.97 J3.004 F1000
G1 X92.78 Y-56.226 F1000
G3 X92.935 Y-56.161 I-1.154 J2.939 F1000
G1 X93.313 Y-55.989 F1000
G3 X93.437 Y-55.929 I-1.309 J2.873 F1000
G1 X93.809 Y-55.739 F1000
G3 X93.905 Y-55.688 I-1.433 J2.813 F1000
G1 X94.273 Y-55.485 F1000
G3 X94.344 Y-55.444 I-1.529 J2.762 F1000
G1 X94.708 Y-55.23 F1000
G3 X94.765 Y-55.196 I-1.6 J2.722 F1000
G1 X95.489 Y-54.75 F1000
G3 X96.146 Y-54.21 I-1.656 J2.688 F1000
G1 X96.669 Y-53.647 F1000
G3 X96.724 Y-53.586 I-2.314 J2.148 F1000
G1 X96.976 Y-53.3 F1000
G3 X97.041 Y-53.224 I-2.369 J2.087 F1000
G1 X97.282 Y-52.933 F1000
G3 X97.366 Y-52.826 I-2.434 J2.011 F1000
G1 X97.591 Y-52.528 F1000
G3 X97.693 Y-52.385 I-2.518 J1.904 F1000
G1 X97.899 Y-52.079 F1000
G3 X98.012 Y-51.899 I-2.62 J1.762 F1000
G1 X98.195 Y-51.582 F1000
G3 X98.313 Y-51.358 I-2.732 J1.581 F1000
G1 X98.469 Y-51.029 F1000
G3 X98.573 Y-50.786 I-2.85 J1.357 F1000
G1 X98.702 Y-50.445 F1000
G3 X98.775 Y-50.225 I-2.954 J1.114 F1000
G1 X98.879 Y-49.873 F1000
G3 X98.929 Y-49.683 I-3.028 J0.895 F1000
G1 X99.012 Y-49.321 F1000
G3 X99.043 Y-49.165 I-3.078 J0.704 F1000
G1 X99.109 Y-48.796 F1000
G3 X99.128 Y-48.672 I-3.109 J0.548 F1000
G1 X99.179 Y-48.296 F1000
G3 X99.19 Y-48.205 I-3.128 J0.424 F1000
G1 X99.23 Y-47.825 F1000
G3 X99.237 Y-47.75 I-3.139 J0.333 F1000
G1 X99.3 Y-46.981 F1000
G3 X99.311 Y-46.723 I-3.146 J0.258 F1000
G1 Y-42.638 F1000
G3 X99.304 Y-42.44 I-3.157 F1000
G1 X99.253 Y-41.624 F1000
G3 X99.248 Y-41.554 I-3.151 J-0.197 F1000
G1 X99.214 Y-41.15 F1000
G3 X99.205 Y-41.063 I-3.146 J-0.268 F1000
G1 X99.16 Y-40.663 F1000
G3 X99.145 Y-40.547 I-3.137 J-0.354 F1000
G1 X99.085 Y-40.153 F1000
G3 X99.06 Y-40.005 I-3.122 J-0.471 F1000
G1 X98.982 Y-39.618 F1000
G3 X98.941 Y-39.439 I-3.096 J-0.618 F1000
G1 X98.843 Y-39.061 F1000
G3 X98.78 Y-38.853 I-3.055 J-0.797 F1000
G1 X98.657 Y-38.485 F1000
G3 X98.568 Y-38.252 I-2.993 J-1.006 F1000
G1 X98.416 Y-37.896 F1000
G3 X98.309 Y-37.67 I-2.904 J-1.239 F1000
G1 X98.128 Y-37.326 F1000
G3 X98.023 Y-37.141 I-2.796 J-1.466 F1000
G1 X97.819 Y-36.807 F1000
G3 X97.724 Y-36.661 I-2.691 J-1.65 F1000
G1 X97.498 Y-36.335 F1000
G3 X97.418 Y-36.224 I-2.596 J-1.796 F1000
G1 X97.176 Y-35.906 F1000
G3 X97.115 Y-35.827 I-2.516 J-1.907 F1000
G1 X96.861 Y-35.514 F1000
G3 X96.808 Y-35.45 I-2.454 J-1.986 F1000
G1 X96.28 Y-34.831 F1000
G3 X95.581 Y-34.222 I-2.402 J-2.049 F1000
G1 X94.868 Y-33.765 F1000
G3 X94.81 Y-33.728 I-1.703 J-2.658 F1000
G1 X94.45 Y-33.509 F1000
G3 X94.378 Y-33.466 I-1.645 J-2.695 F1000
G1 X94.015 Y-33.258 F1000
G3 X93.916 Y-33.203 I-1.573 J-2.737 F1000
G1 X93.548 Y-33.009 F1000
G3 X93.42 Y-32.945 I-1.474 J-2.792 F1000
G1 X93.046 Y-32.769 F1000
G3 X92.887 Y-32.699 I-1.346 J-2.856 F1000
G1 X92.506 Y-32.544 F1000
G3 X92.317 Y-32.474 I-1.188 J-2.925 F1000
G1 X91.928 Y-32.345 F1000
G3 X91.737 Y-32.288 I-0.998 J-2.995 F1000
G1 X91.34 Y-32.183 F1000
G3 X91.171 Y-32.143 I-0.808 J-3.052 F1000
G1 X90.767 Y-32.059 F1000
G3 X90.623 Y-32.033 I-0.639 J-3.092 F1000
G1 X90.212 Y-31.968 F1000
G3 X90.092 Y-31.951 I-0.495 J-3.118 F1000
G1 X89.677 Y-31.902 F1000
G3 X89.546 Y-31.889 I-0.374 J-3.135 F1000
G1 X88.705 Y-31.824 F1000
G3 X88.612 Y-31.818 I-0.244 J-3.148 F1000
G1 X87.762 Y-31.777 F1000
G3 X87.611 Y-31.773 I-0.151 J-3.153 F1000
G1 X80.368 F1000
G3 X77.211 Y-34.93 J-3.157 F1000
G1 Y-53.966 F1000
G3 X77.259 Y-54.517 I3.157 F1000
G1 Z5 F1000
G1 X64.118 Y-89.066 F1000
; MOVEMENT_LEAD_IN
G1 Z-0.001 F1000
; MOVEMENT_CUTTING
G1 X67.275 Y-85.909 Z-5.468 F1000
G1 Y-27.223 F1000
G1 X64.118 Y-24.067 Z-0.001 F1000
G1 X67.275 Y-27.223 Z-5.468 F1000
G1 X88.672 F1000
G1 X90.19 Y-27.274 F1000
G1 X90.946 Y-27.308 F1000
G1 X91.69 Y-27.35 F1000
G1 X92.419 Y-27.403 F1000
G1 X93.131 Y-27.471 F1000
G1 X93.826 Y-27.555 F1000
G1 X94.504 Y-27.657 F1000
G1 X95.174 Y-27.781 F1000
G1 X95.848 Y-27.929 F1000
G1 X96.534 Y-28.1 F1000
G1 X97.231 Y-28.292 F1000
G1 X97.94 Y-28.501 F1000
G1 X98.658 Y-28.724 F1000
G1 X99.969 Y-29.148 F1000
G1 X100.968 Y-29.609 F1000
G1 X101.511 Y-29.87 F1000
G1 X102.036 Y-30.134 F1000
G1 X102.531 Y-30.399 F1000
G1 X103 Y-30.668 F1000
G1 X103.441 Y-30.944 F1000
G1 X103.849 Y-31.224 F1000
G1 X104.239 Y-31.522 F1000
G1 X104.628 Y-31.849 F1000
G1 X105.019 Y-32.206 F1000
G1 X105.415 Y-32.593 F1000
G1 X105.819 Y-33.009 F1000
G1 X106.227 Y-33.446 F1000
G1 X106.894 Y-34.184 F1000
G1 X107.385 Y-34.984 F1000
G1 X107.669 Y-35.468 F1000
G1 X107.932 Y-35.938 F1000
G1 X108.166 Y-36.39 F1000
G1 X108.37 Y-36.826 F1000
G1 X108.542 Y-37.244 F1000
G1 X108.684 Y-37.648 F1000
G1 X108.8 Y-38.064 F1000
G1 X108.902 Y-38.514 F1000
G1 X108.988 Y-38.993 F1000
G1 X109.059 Y-39.504 F1000
G1 X109.119 Y-40.045 F1000
G1 X109.169 Y-40.607 F1000
G1 X109.247 Y-41.726 F1000
G1 Y-46.789 F1000
G1 X109.169 Y-47.813 F1000
G1 X109.12 Y-48.331 F1000
G1 X109.062 Y-48.829 F1000
G1 X108.993 Y-49.299 F1000
G1 X108.912 Y-49.733 F1000
G1 X108.817 Y-50.139 F1000
G1 X108.708 Y-50.514 F1000
G1 X108.577 Y-50.879 F1000
G1 X108.418 Y-51.258 F1000
G1 X108.227 Y-51.656 F1000
G1 X108.008 Y-52.072 F1000
G1 X107.764 Y-52.503 F1000
G1 X107.498 Y-52.949 F1000
G1 X107.039 Y-53.685 F1000
G1 X106.385 Y-54.411 F1000
G1 X105.987 Y-54.839 F1000
G1 X105.591 Y-55.25 F1000
G1 X105.203 Y-55.633 F1000
G1 X104.821 Y-55.987 F1000
G1 X104.439 Y-56.315 F1000
G1 X104.055 Y-56.616 F1000
G1 X103.652 Y-56.904 F1000
G1 X103.221 Y-57.187 F1000
G1 X102.763 Y-57.465 F1000
G1 X102.281 Y-57.74 F1000
G1 X101.775 Y-58.013 F1000
G1 X101.25 Y-58.286 F1000
G1 X100.123 Y-58.852 F1000
G3 X98.748 Y-63.149 I1.416 J-2.822 F1000
G1 X110.784 Y-85.909 F1000
G1 X116.024 Y-89.066 Z-0.001 F1000
G1 X110.784 Y-85.909 Z-5.468 F1000
G1 X100.436 F1000
G1 X98.475 Y-89.066 Z-0.001 F1000
G1 X100.436 Y-85.909 Z-5.468 F1000
G1 X89.327 Y-63.432 F1000
G3 X86.496 Y-61.673 I-2.83 J-1.399 F1000
G1 X80.368 F1000
G3 X77.211 Y-64.83 J-3.157 F1000
G1 Y-85.909 F1000
G1 X80.367 Y-89.066 Z-0.001 F1000
G1 X77.211 Y-85.909 Z-5.468 F1000
G1 X67.275 F1000
G1 Z5 F1000
G1 X125.962 Y-24.067 F1000
; MOVEMENT_LEAD_IN
G1 Z-0.001 F1000
; MOVEMENT_CUTTING
G1 X129.118 Y-27.223 Z-5.467 F1000
G1 Z5 F1000
G1 X125.962 Y-89.066 F1000
; MOVEMENT_LEAD_IN
G1 Z-0.001 F1000
; MOVEMENT_CUTTING
G1 X129.118 Y-85.909 Z-5.468 F1000
G1 Y-27.223 F1000
G1 X163.289 F1000
G1 X166.445 Y-24.067 Z-0.001 F1000
G1 X163.289 Y-27.223 Z-5.468 F1000
G1 Y-32.609 F1000
G1 X142.211 F1000
G3 X139.054 Y-35.766 J-3.157 F1000
G1 Y-50.345 F1000
G3 X142.211 Y-53.502 I3.157 F1000
G1 X161.339 F1000
G1 X164.495 Y-50.345 Z-0.001 F1000
G1 X161.339 Y-53.502 Z-5.468 F1000
G1 Y-58.795 F1000
G1 X164.495 Y-61.951 Z-0.001 F1000
G1 X161.339 Y-58.795 Z-5.468 F1000
G1 X142.211 F1000
G3 X139.054 Y-61.952 J-3.157 F1000
G1 Y-77.088 F1000
G3 X142.211 Y-80.245 I3.157 F1000
G1 X163.289 F1000
G1 X166.445 Y-77.088 Z-0.001 F1000
G1 X163.289 Y-80.245 Z-5.468 F1000
G1 Y-85.909 F1000
G1 X166.445 Y-89.066 Z-0.001 F1000
G1 X163.289 Y-85.909 Z-5.468 F1000
G1 X129.118 F1000
G1 Z5 F1000
G1 X163.289 Y-32.61 F1000
; MOVEMENT_LEAD_IN
G1 Z-5.467 F1000
; MOVEMENT_CUTTING
G1 X166.445 Y-35.766 Z-0.001 F1000
G1 Z5 F1000
G1 X179.076 Y-24.067 F1000
; MOVEMENT_LEAD_IN
G1 Z-0.001 F1000
; MOVEMENT_CUTTING
G1 X182.365 Y-27.223 Z-5.468 F1000
G1 X183.775 Y-61.395 F1000
G1 X180.747 Y-64.551 Z-0.001 F1000
G1 X183.775 Y-61.395 Z-5.468 F1000
G1 X190.439 F1000
G1 X193.467 Y-64.551 Z-0.001 F1000
G1 X190.439 Y-61.395 Z-5.468 F1000
G1 X191.849 Y-27.223 F1000
G1 X195.138 Y-24.067 Z-0.001 F1000
G1 X191.849 Y-27.223 Z-5.468 F1000
G1 X182.365 F1000
G1 Z5 F1000
G1 X187.154 Y-76.175 F1000
; MOVEMENT_LEAD_IN
G1 Z-5.468 F1000
; MOVEMENT_CUTTING
G1 X186.631 Y-76.227 F1000
G1 X186.278 Y-76.27 F1000
G1 X185.951 Y-76.319 F1000
G1 X185.663 Y-76.374 F1000
G1 X185.412 Y-76.434 F1000
G1 X185.2 Y-76.498 F1000
G1 X185.021 Y-76.565 F1000
G1 X184.846 Y-76.647 F1000
G1 X184.651 Y-76.754 F1000
G1 X184.433 Y-76.892 F1000
G1 X184.191 Y-77.061 F1000
G1 X183.927 Y-77.26 F1000
G1 X183.65 Y-77.482 F1000
G1 X183.24 Y-77.826 F1000
G1 X182.9 Y-78.245 F1000
G1 X182.681 Y-78.528 F1000
G1 X182.484 Y-78.797 F1000
G1 X182.317 Y-79.044 F1000
G1 X182.179 Y-79.268 F1000
G1 X182.071 Y-79.47 F1000
G1 X181.987 Y-79.654 F1000
G1 X181.919 Y-79.84 F1000
G1 X181.855 Y-80.057 F1000
G1 X181.795 Y-80.313 F1000
G1 X181.741 Y-80.605 F1000
G1 X181.692 Y-80.938 F1000
G1 X181.648 Y-81.294 F1000
G1 X181.597 Y-81.824 F1000
G1 X181.648 Y-82.351 F1000
G1 X181.69 Y-82.703 F1000
G1 X181.739 Y-83.029 F1000
G1 X181.793 Y-83.322 F1000
G1 X181.852 Y-83.574 F1000
G1 X181.915 Y-83.787 F1000
G1 X181.982 Y-83.969 F1000
G1 X182.062 Y-84.145 F1000
G1 X182.168 Y-84.34 F1000
G1 X182.305 Y-84.56 F1000
G1 X182.471 Y-84.803 F1000
G1 X182.666 Y-85.065 F1000
G1 X182.887 Y-85.346 F1000
G1 X183.223 Y-85.756 F1000
G1 X183.628 Y-86.089 F1000
G1 X183.91 Y-86.309 F1000
G1 X184.175 Y-86.507 F1000
G1 X184.416 Y-86.672 F1000
G1 X184.635 Y-86.807 F1000
G1 X184.832 Y-86.914 F1000
G1 X185.01 Y-86.995 F1000
G1 X185.191 Y-87.062 F1000
G1 X185.404 Y-87.125 F1000
G1 X185.656 Y-87.184 F1000
G1 X185.946 Y-87.238 F1000
G1 X186.272 Y-87.286 F1000
G1 X186.625 Y-87.328 F1000
G1 X187.162 Y-87.381 F1000
G1 X187.706 Y-87.331 F1000
G1 X188.062 Y-87.29 F1000
G1 X188.391 Y-87.243 F1000
G1 X188.684 Y-87.19 F1000
G1 X188.939 Y-87.132 F1000
G1 X189.155 Y-87.069 F1000
G1 X189.34 Y-87.002 F1000
G1 X189.515 Y-86.923 F1000
G1 X189.708 Y-86.818 F1000
G1 X189.928 Y-86.682 F1000
G1 X190.17 Y-86.516 F1000
G1 X190.435 Y-86.319 F1000
G1 X190.716 Y-86.099 F1000
G1 X191.118 Y-85.767 F1000
G1 X191.44 Y-85.367 F1000
G1 X191.656 Y-85.087 F1000
G1 X191.847 Y-84.823 F1000
G1 X192.012 Y-84.578 F1000
G1 X192.148 Y-84.354 F1000
G1 X192.253 Y-84.156 F1000
G1 X192.332 Y-83.981 F1000
G1 X192.398 Y-83.799 F1000
G1 X192.461 Y-83.58 F1000
G1 X192.52 Y-83.325 F1000
G1 X192.572 Y-83.037 F1000
G1 X192.619 Y-82.711 F1000
G1 X192.66 Y-82.358 F1000
G1 X192.71 Y-81.827 F1000
G1 X192.658 Y-81.291 F1000
G1 X192.616 Y-80.938 F1000
G1 X192.567 Y-80.609 F1000
G1 X192.512 Y-80.313 F1000
G1 X192.452 Y-80.057 F1000
G1 X192.387 Y-79.836 F1000
G1 X192.319 Y-79.651 F1000
G1 X192.239 Y-79.473 F1000
G1 X192.129 Y-79.271 F1000
G1 X191.99 Y-79.044 F1000
G1 X191.823 Y-78.797 F1000
G1 X191.626 Y-78.528 F1000
G1 X191.406 Y-78.244 F1000
G1 X191.068 Y-77.826 F1000
G1 X190.657 Y-77.482 F1000
G1 X190.38 Y-77.26 F1000
G1 X190.116 Y-77.061 F1000
G1 X189.874 Y-76.892 F1000
G1 X189.656 Y-76.754 F1000
G1 X189.462 Y-76.647 F1000
G1 X189.286 Y-76.565 F1000
G1 X189.107 Y-76.498 F1000
G1 X188.895 Y-76.434 F1000
G1 X188.644 Y-76.374 F1000
G1 X188.355 Y-76.319 F1000
G1 X188.03 Y-76.27 F1000
G1 X187.677 Y-76.227 F1000
G1 X187.154 Y-76.175 F1000
G1 Z5 F1000
G1 X161.251 Y82.752 F1000
; MOVEMENT_LEAD_IN
G1 Z-0.001 F1000
; MOVEMENT_CUTTING
G1 X164.407 Y85.909 Z-5.468 F1000
G1 X166.464 F1000
G2 X169.621 Y82.752 J-3.157 F1000
G1 Y63.904 F1000
G1 X169.681 Y62.738 F1000
G1 X169.722 Y62.177 F1000
G1 X169.774 Y61.65 F1000
G1 X169.841 Y61.158 F1000
G1 X169.924 Y60.703 F1000
G1 X170.028 Y60.269 F1000
G1 X170.076 Y60.106 F1000
G1 X170.135 Y59.928 F1000
G1 X170.199 Y59.759 F1000
G1 X170.269 Y59.593 F1000
G1 X170.346 Y59.428 F1000
G1 X170.423 Y59.28 F1000
G1 X170.648 Y58.892 F1000
G1 X170.903 Y58.504 F1000
G1 X171.2 Y58.092 F1000
G1 X171.53 Y57.664 F1000
G1 X171.986 Y57.102 F1000
G1 X172.63 Y56.691 F1000
G1 X173.118 Y56.393 F1000
G1 X173.592 Y56.123 F1000
G1 X174.044 Y55.885 F1000
G1 X174.475 Y55.685 F1000
G1 X174.911 Y55.51 F1000
G1 X175.089 Y55.449 F1000
G1 X175.271 Y55.393 F1000
G1 X175.73 Y55.274 F1000
G1 X176.198 Y55.181 F1000
G1 X176.7 Y55.104 F1000
G1 X177.234 Y55.043 F1000
G1 X177.799 Y54.996 F1000
G1 X178.387 Y54.96 F1000
G1 X179.547 Y54.911 F1000
G1 X180.436 Y54.943 F1000
G1 X181.404 Y54.99 F1000
G1 X182.346 Y55.06 F1000
G1 X182.777 Y55.105 F1000
G1 X183.211 Y55.16 F1000
G1 X183.642 Y55.226 F1000
G1 X184.067 Y55.301 F1000
G1 X184.178 Y55.324 F1000
G1 X185.186 Y54.607 Z-3.898 F1000
G1 X186.406 Y53.763 Z-1.992 F1000
G1 X187.678 Y52.895 Z-0.001 F1000
G1 X186.406 Y53.763 Z-1.992 F1000
G1 X185.186 Y54.607 Z-3.898 F1000
G1 X184.178 Y55.324 Z-5.468 F1000
G1 X183.878 Y57.626 F1000
G1 X184.052 Y57.833 Z-5.122 F1000
G1 X184.539 Y58.422 Z-4.154 F1000
G1 X185.005 Y59.001 Z-3.224 F1000
G1 X185.435 Y59.552 Z-2.362 F1000
G1 X185.842 Y60.085 Z-1.544 F1000
G1 X186.607 Y61.108 Z-0.001 F1000
G1 X185.842 Y60.085 Z-1.544 F1000
G1 X185.435 Y59.552 Z-2.362 F1000
G1 X185.005 Y59.001 Z-3.224 F1000
G1 X184.539 Y58.422 Z-4.154 F1000
G1 X184.052 Y57.833 Z-5.122 F1000
G1 X183.878 Y57.626 Z-5.468 F1000
G1 X183.079 Y57.597 F1000
G2 X182.584 Y57.617 I-0.115 J3.155 F1000
G1 X181.702 Y57.724 F1000
G2 X181.586 Y57.741 I0.38 J3.134 F1000
G1 X181.158 Y57.809 F1000
G2 X181.01 Y57.836 I0.496 J3.118 F1000
G1 X180.599 Y57.921 F1000
G2 X180.389 Y57.973 I0.644 J3.091 F1000
G1 X180.001 Y58.082 F1000
G2 X179.807 Y58.143 I0.854 J3.039 F1000
G1 X179.622 Y58.208 F1000
G2 X179.459 Y58.271 I1.048 J2.978 F1000
G1 X179.283 Y58.344 F1000
G2 X179.109 Y58.422 I1.211 J2.916 F1000
G1 X178.941 Y58.504 F1000
G2 X178.76 Y58.6 I1.385 J2.837 F1000
G1 X178.6 Y58.691 F1000
G2 X178.386 Y58.825 I1.566 J2.741 F1000
G1 X178.237 Y58.927 F1000
G2 X178.038 Y59.074 I1.78 J2.608 F1000
G1 X177.898 Y59.187 F1000
G2 X177.678 Y59.382 I1.979 J2.46 F1000
G1 X177.55 Y59.506 F1000
G2 X177.355 Y59.713 I2.199 J2.265 F1000
G1 X177.238 Y59.849 F1000
G2 X177.071 Y60.061 I2.394 J2.058 F1000
G1 X176.965 Y60.208 F1000
G2 X176.839 Y60.397 I2.561 J1.847 F1000
G1 X176.742 Y60.555 F1000
G2 X176.637 Y60.737 I2.687 J1.657 F1000
G1 X176.549 Y60.904 F1000
G2 X176.469 Y61.068 I2.792 J1.475 F1000
G1 X176.389 Y61.243 F1000
G2 X176.3 Y61.459 I2.872 J1.311 F1000
G1 X176.162 Y61.833 F1000
G2 X176.088 Y62.058 I2.961 J1.094 F1000
G1 X175.974 Y62.457 F1000
G2 X175.932 Y62.618 I3.035 J0.869 F1000
G1 X175.836 Y63.035 F1000
G2 X175.81 Y63.159 I3.077 J0.708 F1000
G1 X175.647 Y64.025 F1000
G2 X175.593 Y64.609 I3.103 J0.584 F1000
G1 Y82.752 F1000
G2 X178.75 Y85.909 I3.157 F1000
G1 X183.45 F1000
G1 X186.606 Y82.752 Z-0.001 F1000
G1 X183.45 Y85.909 Z-5.468 F1000
G1 Y88.237 F1000
G1 X186.606 Y91.394 Z-0.001 F1000
G1 X183.45 Y88.237 Z-5.468 F1000
G1 X178.75 F1000
G2 X175.593 Y91.395 J3.157 F1000
G1 Y97.666 F1000
G1 X170.562 F1000
G1 X169.965 Y91.108 F1000
G2 X166.821 Y88.237 I-3.144 J0.286 F1000
G1 X164.407 F1000
G1 Y85.909 F1000
G1 Y88.237 F1000
G1 X161.251 Y91.394 Z-0.001 F1000
G1 Z5 F1000
G1 X175.593 Y97.666 F1000
; MOVEMENT_LEAD_IN
G1 Z-5.467 F1000
; MOVEMENT_CUTTING
G1 X178.749 Y100.822 Z-0.001 F1000
G1 Z5 F1000
G1 X167.68 F1000
; MOVEMENT_LEAD_IN
G1 Z-0.001 F1000
; MOVEMENT_CUTTING
G1 X170.561 Y97.666 Z-5.467 F1000
G1 Z5 F1000
G1 X133.894 Y52.895 F1000
; MOVEMENT_LEAD_IN
G1 Z-0.001 F1000
; MOVEMENT_CUTTING
G1 X137.05 Y56.052 Z-5.468 F1000
G1 Y88.237 F1000
G1 X133.894 Y91.394 Z-0.001 F1000
G1 X137.05 Y88.237 Z-5.468 F1000
G1 X139.855 F1000
G1 X142.179 Y91.394 Z-0.001 F1000
G1 X139.855 Y88.237 Z-5.468 F1000
G1 X141.164 Y84.028 F1000
G3 X146.998 Y83.544 I3.015 J0.938 F1000
G1 X147.391 Y84.324 F1000
G1 X147.775 Y85.037 F1000
G1 X147.95 Y85.332 F1000
G1 X148.128 Y85.614 F1000
G1 X148.301 Y85.864 F1000
G1 X148.474 Y86.089 F1000
G1 X148.658 Y86.302 F1000
G1 X148.863 Y86.518 F1000
G1 X149.097 Y86.742 F1000
G1 X149.345 Y86.964 F1000
G1 X149.965 Y87.475 F1000
G1 X150.449 Y87.852 F1000
G1 X150.936 Y88.117 F1000
G1 X151.604 Y88.458 F1000
G1 X151.886 Y88.589 F1000
G1 X152.164 Y88.708 F1000
G1 X152.426 Y88.807 F1000
G1 X152.672 Y88.887 F1000
G1 X152.921 Y88.954 F1000
G1 X153.193 Y89.013 F1000
G1 X153.489 Y89.065 F1000
G1 X153.795 Y89.108 F1000
G1 X154.539 Y89.185 F1000
G1 X155.173 Y89.233 F1000
G1 X156.075 Y89.202 F1000
G1 X156.124 Y89.242 Z-5.397 F1000
G1 X156.62 Y89.624 Z-4.674 F1000
G1 X157.125 Y89.995 Z-3.933 F1000
G1 X157.672 Y90.372 Z-3.121 F1000
G1 X158.301 Y90.782 Z-2.18 F1000
G1 X159.006 Y91.223 Z-1.122 F1000
G1 X159.749 Y91.68 Z-0.001 F1000
G1 X159.006 Y91.223 Z-1.122 F1000
G1 X158.301 Y90.782 Z-2.18 F1000
G1 X157.672 Y90.372 Z-3.121 F1000
G1 X157.125 Y89.995 Z-3.933 F1000
G1 X156.62 Y89.624 Z-4.674 F1000
G1 X156.124 Y89.242 Z-5.397 F1000
G1 X156.075 Y89.202 Z-5.468 F1000
G1 X155.111 Y84.052 F1000
G1 X155.235 Y83.9 Z-5.21 F1000
G1 X155.93 Y83.022 Z-3.746 F1000
G1 X156.592 Y82.153 Z-2.342 F1000
G1 X157.155 Y81.367 Z-1.134 F1000
G1 X157.679 Y80.609 Z-0.001 F1000
G1 X157.155 Y81.367 Z-1.134 F1000
G1 X156.592 Y82.153 Z-2.342 F1000
G1 X155.93 Y83.022 Z-3.746 F1000
G1 X155.235 Y83.9 Z-5.21 F1000
G1 X155.111 Y84.052 Z-5.468 F1000
G3 X154.546 Y84.001 I-0.004 J-3.157 F1000
G1 X153.789 Y83.864 F1000
G3 X153.747 Y83.857 I0.561 J-3.107 F1000
G1 X152.997 Y83.711 F1000
G3 X152.914 Y83.693 I0.603 J-3.099 F1000
G1 X152.177 Y83.529 F1000
G3 X152.049 Y83.498 I0.686 J-3.082 F1000
G1 X151.331 Y83.307 F1000
G3 X151.205 Y83.27 I0.814 J-3.05 F1000
G1 X150.856 Y83.161 F1000
G3 X150.757 Y83.128 I0.94 J-3.014 F1000
G1 X150.415 Y83.009 F1000
G3 X150.304 Y82.968 I1.039 J-2.981 F1000
G1 X149.97 Y82.838 F1000
G3 X149.848 Y82.787 I1.15 J-2.94 F1000
G1 X149.523 Y82.644 F1000
G3 X149.391 Y82.582 I1.272 J-2.889 F1000
G1 X149.075 Y82.425 F1000
G3 X148.927 Y82.347 I1.404 J-2.828 F1000
G1 X148.623 Y82.175 F1000
G3 X148.476 Y82.087 I1.552 J-2.749 F1000
G1 X148.182 Y81.899 F1000
G3 X148.024 Y81.791 I1.699 J-2.661 F1000
G1 X147.743 Y81.587 F1000
G3 X147.598 Y81.475 I1.857 J-2.553 F1000
G1 X147.329 Y81.254 F1000
G3 X147.206 Y81.148 I2.002 J-2.441 F1000
G1 X146.947 Y80.912 F1000
G3 X146.836 Y80.806 I2.125 J-2.334 F1000
G1 X146.587 Y80.556 F1000
G3 X146.491 Y80.456 I2.236 J-2.228 F1000
G1 X146.251 Y80.193 F1000
G3 X146.161 Y80.089 I2.332 J-2.128 F1000
G1 X145.931 Y79.814 F1000
G3 X145.863 Y79.73 I2.422 J-2.025 F1000
G1 X145.64 Y79.444 F1000
G3 X145.579 Y79.362 I2.49 J-1.94 F1000
G1 X145.363 Y79.066 F1000
G3 X145.309 Y78.99 I2.551 J-1.859 F1000
G1 X145.1 Y78.684 F1000
G3 X145.039 Y78.592 I2.605 J-1.783 F1000
G1 X144.637 Y77.957 F1000
G3 X144.576 Y77.858 I2.666 J-1.69 F1000
G1 X144.192 Y77.2 F1000
G3 X144.147 Y77.12 I2.727 J-1.591 F1000
G1 X143.407 Y75.763 F1000
G3 X143.022 Y74.252 I2.772 J-1.511 F1000
G1 Y56.052 F1000
G1 X137.05 F1000
G1 X143.022 F1000
G1 X146.178 Y52.895 Z-0.001 F1000
G1 Z5 F1000
G1 X121.922 Y63.443 F1000
; MOVEMENT_LEAD_IN
G1 Z-5.468 F1000
; MOVEMENT_CUTTING
G1 X122.053 Y63.757 F1000
G1 X122.171 Y64.071 F1000
G1 X122.279 Y64.394 F1000
G1 X122.379 Y64.731 F1000
G1 X122.47 Y65.077 F1000
G1 X122.553 Y65.432 F1000
G1 X122.628 Y65.802 F1000
G1 X122.694 Y66.169 F1000
G1 X122.812 Y66.979 F1000
G1 X122.905 Y67.813 F1000
G1 X122.98 Y68.676 F1000
G1 X123.093 Y70.425 F1000
G1 Y73.933 F1000
G1 X122.978 Y75.672 F1000
G1 X122.903 Y76.53 F1000
G1 X122.81 Y77.358 F1000
G1 X122.691 Y78.162 F1000
G1 X122.624 Y78.528 F1000
G1 X122.549 Y78.895 F1000
G1 X122.465 Y79.25 F1000
G1 X122.374 Y79.597 F1000
G1 X122.276 Y79.925 F1000
G1 X122.168 Y80.245 F1000
G1 X122.049 Y80.56 F1000
G1 X121.92 Y80.867 F1000
G1 X121.776 Y81.178 F1000
G1 X121.616 Y81.495 F1000
G1 X121.443 Y81.816 F1000
G1 X121.257 Y82.137 F1000
G1 X121.058 Y82.463 F1000
G1 X120.851 Y82.786 F1000
G1 X120.38 Y83.478 F1000
G1 X119.883 Y84.165 F1000
G1 X119.04 Y85.275 F1000
G1 X117.871 Y86.15 F1000
G1 X117.153 Y86.661 F1000
G1 X116.434 Y87.142 F1000
G1 X116.099 Y87.352 F1000
G1 X115.757 Y87.557 F1000
G1 X115.419 Y87.747 F1000
G1 X115.085 Y87.923 F1000
G1 X114.757 Y88.084 F1000
G1 X114.431 Y88.23 F1000
G1 X114.107 Y88.361 F1000
G1 X113.78 Y88.48 F1000
G1 X113.44 Y88.589 F1000
G1 X113.089 Y88.689 F1000
G1 X112.727 Y88.781 F1000
G1 X112.353 Y88.863 F1000
G1 X111.968 Y88.938 F1000
G1 X111.586 Y89.003 F1000
G1 X110.743 Y89.119 F1000
G1 X109.878 Y89.207 F1000
G1 X108.984 Y89.277 F1000
G1 X107.249 Y89.375 F1000
G1 X105.518 Y89.278 F1000
G1 X104.626 Y89.209 F1000
G1 X103.764 Y89.12 F1000
G1 X102.923 Y89.005 F1000
G1 X102.542 Y88.94 F1000
G1 X102.159 Y88.866 F1000
G1 X101.786 Y88.783 F1000
G1 X101.425 Y88.692 F1000
G1 X101.075 Y88.592 F1000
G1 X100.738 Y88.483 F1000
G1 X100.411 Y88.364 F1000
G1 X100.089 Y88.234 F1000
G1 X99.765 Y88.088 F1000
G1 X99.437 Y87.927 F1000
G1 X99.105 Y87.752 F1000
G1 X98.77 Y87.562 F1000
G1 X98.429 Y87.358 F1000
G1 X98.096 Y87.148 F1000
G1 X97.379 Y86.666 F1000
G1 X96.665 Y86.156 F1000
G1 X95.503 Y85.282 F1000
G1 X94.666 Y84.172 F1000
G1 X94.172 Y83.483 F1000
G1 X93.705 Y82.791 F1000
G1 X93.5 Y82.47 F1000
G1 X93.301 Y82.141 F1000
G1 X93.116 Y81.817 F1000
G1 X92.944 Y81.498 F1000
G1 X92.786 Y81.182 F1000
G1 X92.643 Y80.87 F1000
G1 X92.513 Y80.561 F1000
G1 X92.396 Y80.248 F1000
G1 X92.289 Y79.927 F1000
G1 X92.19 Y79.595 F1000
G1 X92.1 Y79.25 F1000
G1 X92.017 Y78.894 F1000
G1 X91.942 Y78.527 F1000
G1 X91.877 Y78.164 F1000
G1 X91.759 Y77.357 F1000
G1 X91.666 Y76.529 F1000
G1 X91.592 Y75.672 F1000
G1 X91.478 Y73.934 F1000
G1 Y70.424 F1000
G1 X91.591 Y68.675 F1000
G1 X91.664 Y67.813 F1000
G1 X91.756 Y66.981 F1000
G1 X91.874 Y66.169 F1000
G1 X91.938 Y65.804 F1000
G1 X92.013 Y65.434 F1000
G1 X92.096 Y65.076 F1000
G1 X92.186 Y64.729 F1000
G1 X92.285 Y64.393 F1000
G1 X92.393 Y64.07 F1000
G1 X92.51 Y63.755 F1000
G1 X92.639 Y63.444 F1000
G1 X92.782 Y63.13 F1000
G1 X92.941 Y62.812 F1000
G1 X93.113 Y62.49 F1000
G1 X93.299 Y62.164 F1000
G1 X93.498 Y61.834 F1000
G1 X93.703 Y61.511 F1000
G1 X94.171 Y60.815 F1000
G1 X94.667 Y60.122 F1000
G1 X95.505 Y59.006 F1000
G1 X96.665 Y58.133 F1000
G1 X97.379 Y57.623 F1000
G1 X98.096 Y57.141 F1000
G1 X98.429 Y56.931 F1000
G1 X98.769 Y56.727 F1000
G1 X99.106 Y56.537 F1000
G1 X99.437 Y56.361 F1000
G1 X99.765 Y56.201 F1000
G1 X100.089 Y56.055 F1000
G1 X100.411 Y55.924 F1000
G1 X100.738 Y55.806 F1000
G1 X101.075 Y55.697 F1000
G1 X101.425 Y55.597 F1000
G1 X101.786 Y55.506 F1000
G1 X102.159 Y55.423 F1000
G1 X102.542 Y55.349 F1000
G1 X102.923 Y55.284 F1000
G1 X103.764 Y55.169 F1000
G1 X104.626 Y55.08 F1000
G1 X105.517 Y55.011 F1000
G1 X107.249 Y54.914 F1000
G1 X108.984 Y55.012 F1000
G1 X109.878 Y55.082 F1000
G1 X110.743 Y55.17 F1000
G1 X111.586 Y55.286 F1000
G1 X111.968 Y55.351 F1000
G1 X112.353 Y55.425 F1000
G1 X112.726 Y55.508 F1000
G1 X113.089 Y55.6 F1000
G1 X113.44 Y55.7 F1000
G1 X113.78 Y55.809 F1000
G1 X114.108 Y55.928 F1000
G1 X114.43 Y56.059 F1000
G1 X114.756 Y56.205 F1000
G1 X115.085 Y56.366 F1000
G1 X115.419 Y56.542 F1000
G1 X115.757 Y56.732 F1000
G1 X116.099 Y56.937 F1000
G1 X116.434 Y57.147 F1000
G1 X117.153 Y57.628 F1000
G1 X117.871 Y58.139 F1000
G1 X119.037 Y59.012 F1000
G1 X119.883 Y60.129 F1000
G1 X120.382 Y60.821 F1000
G1 X120.854 Y61.517 F1000
G1 X121.06 Y61.839 F1000
G1 X121.258 Y62.167 F1000
G1 X121.446 Y62.493 F1000
G1 X121.62 Y62.817 F1000
G1 X121.78 Y63.133 F1000
G1 X121.922 Y63.443 F1000
G1 Z5 F1000
G1 X116.59 Y64.922 F1000
; MOVEMENT_LEAD_IN
G1 Z-5.468 F1000
; MOVEMENT_CUTTING
G1 X116.63 Y65.068 F1000
G3 X116.669 Y65.224 I-3.042 J0.844 F1000
G1 X116.775 Y65.699 F1000
G3 X116.805 Y65.849 I-3.081 J0.688 F1000
G1 X116.888 Y66.329 F1000
G3 X116.908 Y66.46 I-3.111 J0.538 F1000
G1 X116.971 Y66.945 F1000
G3 X116.983 Y67.056 I-3.131 J0.407 F1000
G1 X117.029 Y67.545 F1000
G3 X117.036 Y67.63 I-3.143 J0.296 F1000
G1 X117.069 Y68.122 F1000
G3 X117.074 Y68.225 I-3.15 J0.211 F1000
G1 X117.108 Y69.217 F1000
G3 X117.11 Y69.291 I-3.155 J0.108 F1000
G1 X117.121 Y70.288 F1000
G3 Y70.323 I-3.157 J0.035 F1000
G1 Y74.18 F1000
G3 Y74.219 I-3.157 F1000
G1 X117.109 Y75.195 F1000
G3 X117.107 Y75.27 I-3.157 J-0.039 F1000
G1 X117.072 Y76.24 F1000
G3 X117.067 Y76.342 I-3.155 J-0.114 F1000
G1 X117.034 Y76.824 F1000
G3 X117.026 Y76.917 I-3.15 J-0.216 F1000
G1 X116.979 Y77.395 F1000
G3 X116.966 Y77.509 I-3.142 J-0.309 F1000
G1 X116.902 Y77.983 F1000
G3 X116.882 Y78.11 I-3.129 J-0.423 F1000
G1 X116.799 Y78.579 F1000
G3 X116.768 Y78.733 I-3.109 J-0.55 F1000
G1 X116.662 Y79.196 F1000
G3 X116.621 Y79.355 I-3.078 J-0.704 F1000
G1 X116.491 Y79.813 F1000
G3 X116.442 Y79.969 I-3.037 J-0.863 F1000
G1 X116.288 Y80.42 F1000
G3 X116.246 Y80.536 I-2.988 J-1.019 F1000
G1 X116.074 Y80.983 F1000
G3 X116.032 Y81.087 I-2.946 J-1.134 F1000
G1 X115.843 Y81.53 F1000
G3 X115.816 Y81.592 I-2.904 J-1.238 F1000
G1 X115.617 Y82.032 F1000
G3 X115.588 Y82.095 I-2.877 J-1.3 F1000
G1 X115.169 Y82.971 F1000
G3 X114.562 Y83.833 I-2.848 J-1.362 F1000
G1 X114.041 Y84.358 F1000
G3 X113.974 Y84.423 I-2.241 J-2.224 F1000
G1 X113.708 Y84.676 F1000
G3 X113.631 Y84.747 I-2.174 J-2.289 F1000
G1 X113.36 Y84.988 F1000
G3 X113.243 Y85.086 I-2.097 J-2.36 F1000
G1 X112.964 Y85.311 F1000
G3 X112.814 Y85.425 I-1.98 J-2.459 F1000
G1 X112.526 Y85.629 F1000
G3 X112.33 Y85.758 I-1.83 J-2.573 F1000
G1 X112.031 Y85.939 F1000
G3 X111.788 Y86.071 I-1.634 J-2.701 F1000
G1 X111.476 Y86.225 F1000
G3 X111.218 Y86.337 I-1.391 J-2.834 F1000
G1 X110.893 Y86.462 F1000
G3 X110.66 Y86.542 I-1.133 J-2.947 F1000
G1 X110.323 Y86.642 F1000
G3 X110.123 Y86.694 I-0.9 J-3.026 F1000
G1 X109.776 Y86.773 F1000
G3 X109.612 Y86.806 I-0.7 J-3.078 F1000
G1 X109.257 Y86.867 F1000
G3 X109.127 Y86.887 I-0.536 J-3.111 F1000
G1 X108.765 Y86.934 F1000
G3 X108.671 Y86.945 I-0.406 J-3.131 F1000
G1 X108.304 Y86.981 F1000
G3 X108.226 Y86.988 I-0.312 J-3.142 F1000
G1 X107.484 Y87.043 F1000
G3 X107.019 I-0.234 J-3.148 F1000
G1 X106.28 Y86.989 F1000
G3 X106.201 Y86.982 I0.231 J-3.149 F1000
G1 X105.836 Y86.946 F1000
G3 X105.741 Y86.935 I0.31 J-3.142 F1000
G1 X105.381 Y86.889 F1000
G3 X105.251 Y86.869 I0.405 J-3.131 F1000
G1 X104.897 Y86.808 F1000
G3 X104.731 Y86.775 I0.535 J-3.111 F1000
G1 X104.386 Y86.696 F1000
G3 X104.185 Y86.644 I0.701 J-3.078 F1000
G1 X103.85 Y86.544 F1000
G3 X103.614 Y86.463 I0.902 J-3.025 F1000
G1 X103.291 Y86.338 F1000
G3 X103.031 Y86.224 I1.138 J-2.945 F1000
G1 X102.721 Y86.071 F1000
G3 X102.477 Y85.937 I1.398 J-2.831 F1000
G1 X102.18 Y85.756 F1000
G3 X101.979 Y85.622 I1.642 J-2.696 F1000
G1 X101.694 Y85.417 F1000
G3 X101.542 Y85.301 I1.843 J-2.563 F1000
G1 X101.266 Y85.076 F1000
G3 X101.15 Y84.976 I1.995 J-2.447 F1000
G1 X100.882 Y84.735 F1000
G3 X100.803 Y84.663 I2.111 J-2.347 F1000
G1 X100.54 Y84.409 F1000
G3 X100.476 Y84.345 I2.19 J-2.274 F1000
G1 X99.96 Y83.819 F1000
G3 X99.353 Y82.944 I2.254 J-2.21 F1000
G1 X98.943 Y82.066 F1000
G3 X98.916 Y82.006 I2.861 J-1.335 F1000
G1 X98.721 Y81.565 F1000
G3 X98.692 Y81.498 I2.888 J-1.276 F1000
G1 X98.508 Y81.053 F1000
G3 X98.474 Y80.966 I2.917 J-1.208 F1000
G1 X98.304 Y80.518 F1000
G3 X98.258 Y80.391 I2.951 J-1.121 F1000
G1 X98.108 Y79.939 F1000
G3 X98.063 Y79.789 I2.997 J-0.994 F1000
G1 X97.936 Y79.331 F1000
G3 X97.898 Y79.178 I3.042 J-0.844 F1000
G1 X97.794 Y78.715 F1000
G3 X97.763 Y78.561 I3.08 J-0.691 F1000
G1 X97.682 Y78.092 F1000
G3 X97.663 Y77.965 I3.111 J-0.538 F1000
G1 X97.601 Y77.491 F1000
G3 X97.589 Y77.384 I3.13 J-0.41 F1000
G1 X97.542 Y76.907 F1000
G3 X97.535 Y76.813 I3.143 J-0.303 F1000
G1 X97.503 Y76.333 F1000
G3 X97.498 Y76.234 I3.15 J-0.21 F1000
G1 X97.464 Y75.265 F1000
G3 X97.462 Y75.193 I3.155 J-0.111 F1000
G1 X97.45 Y74.219 F1000
G3 Y74.18 I3.157 J-0.039 F1000
G1 Y70.323 F1000
G3 Y70.288 I3.157 F1000
G1 X97.461 Y69.292 F1000
G3 X97.463 Y69.222 I3.157 J0.035 F1000
G1 X97.496 Y68.232 F1000
G3 X97.5 Y68.138 I3.155 J0.105 F1000
G1 X97.531 Y67.646 F1000
G3 X97.539 Y67.549 I3.151 J0.199 F1000
G1 X97.585 Y67.061 F1000
G3 X97.596 Y66.956 I3.143 J0.296 F1000
G1 X97.658 Y66.471 F1000
G3 X97.677 Y66.347 I3.132 J0.401 F1000
G1 X97.758 Y65.867 F1000
G3 X97.786 Y65.723 I3.113 J0.525 F1000
G1 X97.889 Y65.248 F1000
G3 X97.927 Y65.092 I3.085 J0.669 F1000
G1 X98.054 Y64.623 F1000
G3 X98.099 Y64.471 I3.047 J0.825 F1000
G1 X98.25 Y64.007 F1000
G3 X98.291 Y63.888 I3.002 J0.978 F1000
G1 X98.461 Y63.429 F1000
G3 X98.495 Y63.343 I2.961 J1.096 F1000
G1 X98.679 Y62.888 F1000
G3 X98.711 Y62.81 I2.927 J1.182 F1000
G1 X98.908 Y62.358 F1000
G3 X98.931 Y62.307 I2.895 J1.259 F1000
G1 X99.342 Y61.406 F1000
G3 X99.939 Y60.527 I2.872 J1.31 F1000
G1 X100.452 Y59.994 F1000
G3 X100.519 Y59.927 I2.275 J2.189 F1000
G1 X100.781 Y59.67 F1000
G3 X100.858 Y59.597 I2.208 J2.256 F1000
G1 X101.125 Y59.353 F1000
G3 X101.24 Y59.253 I2.131 J2.329 F1000
G1 X101.515 Y59.024 F1000
G3 X101.666 Y58.907 I2.016 J2.43 F1000
G1 X101.95 Y58.699 F1000
G3 X102.154 Y58.561 I1.865 J2.547 F1000
G1 X102.451 Y58.377 F1000
G3 X102.692 Y58.243 I1.661 J2.685 F1000
G1 X103.001 Y58.087 F1000
G3 X103.269 Y57.967 I1.42 J2.82 F1000
G1 X103.593 Y57.84 F1000
G3 X103.827 Y57.759 I1.152 J2.939 F1000
G1 X104.162 Y57.657 F1000
G3 X104.366 Y57.603 I0.918 J3.021 F1000
G1 X104.712 Y57.522 F1000
G3 X104.881 Y57.488 I0.714 J3.075 F1000
G1 X105.236 Y57.426 F1000
G3 X105.366 Y57.406 I0.545 J3.11 F1000
G1 X105.727 Y57.358 F1000
G3 X105.824 Y57.347 I0.415 J3.13 F1000
G1 X106.19 Y57.31 F1000
G3 X106.27 Y57.303 I0.318 J3.141 F1000
G1 X107.012 Y57.246 F1000
G3 X107.491 Y57.247 I0.238 J3.148 F1000
G1 X108.236 Y57.304 F1000
G3 X108.314 Y57.311 I-0.241 J3.148 F1000
G1 X108.682 Y57.348 F1000
G3 X108.779 Y57.359 I-0.319 J3.141 F1000
G1 X109.142 Y57.408 F1000
G3 X109.272 Y57.428 I-0.416 J3.129 F1000
G1 X109.628 Y57.49 F1000
G3 X109.794 Y57.524 I-0.546 J3.109 F1000
G1 X110.142 Y57.605 F1000
G3 X110.345 Y57.659 I-0.712 J3.076 F1000
G1 X110.682 Y57.761 F1000
G3 X110.918 Y57.842 I-0.915 J3.021 F1000
G1 X111.243 Y57.97 F1000
G3 X111.502 Y58.085 I-1.151 J2.94 F1000
G1 X111.814 Y58.24 F1000
G3 X112.057 Y58.375 I-1.41 J2.825 F1000
G1 X112.356 Y58.559 F1000
G3 X112.554 Y58.691 I-1.653 J2.69 F1000
G1 X112.841 Y58.899 F1000
G3 X112.991 Y59.015 I-1.851 J2.558 F1000
G1 X113.269 Y59.243 F1000
G3 X113.384 Y59.341 I-2.001 J2.442 F1000
G1 X113.654 Y59.585 F1000
G3 X113.735 Y59.661 I-2.116 J2.343 F1000
G1 X113.999 Y59.917 F1000
G3 X114.061 Y59.979 I-2.197 J2.267 F1000
G1 X114.58 Y60.511 F1000
G3 X115.18 Y61.377 I-2.259 J2.205 F1000
G1 X115.601 Y62.276 F1000
G3 X115.629 Y62.337 I-2.859 J1.339 F1000
G1 X115.829 Y62.789 F1000
G3 X115.857 Y62.855 I-2.887 J1.278 F1000
G1 X116.046 Y63.31 F1000
G3 X116.085 Y63.407 I-2.915 J1.212 F1000
G1 X116.258 Y63.866 F1000
G3 X116.3 Y63.984 I-2.954 J1.115 F1000
G1 X116.454 Y64.447 F1000
G3 X116.5 Y64.6 I-2.996 J0.996 F1000
G1 X116.59 Y64.922 F1000
G1 Z5 F1000
G1 X81.236 Y97.051 F1000
; MOVEMENT_LEAD_IN
G1 Z-5.467 F1000
; MOVEMENT_CUTTING
G1 X84.392 Y93.895 Z-0.001 F1000
G1 Z5 F1000
G1 X81.236 Y99.737 F1000
; MOVEMENT_LEAD_IN
G1 Z-5.467 F1000
; MOVEMENT_CUTTING
G1 X84.392 Y102.893 Z-0.001 F1000
G1 Z5 F1000
G1 X52.465 Y52.895 F1000
; MOVEMENT_LEAD_IN
G1 Z-0.001 F1000
; MOVEMENT_CUTTING
G1 X55.621 Y56.052 Z-5.468 F1000
G1 X61.807 F1000
G1 X64.964 Y52.895 Z-0.001 F1000
G1 X61.807 Y56.052 Z-5.468 F1000
G1 Y73.109 F1000
G2 X64.964 Y76.266 I3.157 F1000
G1 X78.236 F1000
G1 X81.392 Y73.109 Z-0.001 F1000
G1 X78.236 Y76.266 Z-5.468 F1000
G1 Y78.809 F1000
G1 X81.392 Y81.965 Z-0.001 F1000
G1 X78.236 Y78.809 Z-5.468 F1000
G1 X64.964 F1000
G2 X61.807 Y81.966 J3.157 F1000
G1 Y93.895 F1000
G2 X64.964 Y97.052 I3.157 F1000
G1 X81.236 F1000
G1 Y99.737 F1000
G1 X55.621 F1000
G1 X52.465 Y102.893 Z-0.001 F1000
G1 X55.621 Y99.737 Z-5.468 F1000
G1 Y56.052 F1000
G1 Z5 F1000
G1 X-6.536 Y57.466 F1000
; MOVEMENT_LEAD_IN
G1 Z0 F1000
; MOVEMENT_CUTTING
G1 X-5.069 Y57.583 Z-1.794 F1000
G1 X-3.665 Y57.71 Z-3.493 F1000
G1 X-3.035 Y57.777 Z-4.245 F1000
G1 X-2.438 Y57.848 Z-4.948 F1000
G1 X-1.989 Y57.909 Z-5.468 F1000
G1 X-1.926 Y57.867 F1000
G1 X-1.588 Y57.659 F1000
G1 X-1.238 Y57.462 F1000
G1 X-0.866 Y57.271 F1000
G1 X-0.473 Y57.084 F1000
G1 X-0.07 Y56.904 F1000
G1 X0.835 Y56.53 F1000
G1 X1.647 Y56.213 F1000
G1 X2.636 Y55.934 F1000
G1 X3.742 Y55.641 F1000
G1 X4.263 Y55.515 F1000
G1 X4.781 Y55.4 F1000
G1 X5.289 Y55.301 F1000
G1 X5.79 Y55.216 F1000
G1 X6.297 Y55.147 F1000
G1 X6.816 Y55.089 F1000
G1 X7.349 Y55.042 F1000
G1 X7.887 Y55.004 F1000
G1 X9.034 Y54.948 F1000
G1 X10.097 Y54.911 F1000
G1 X11.532 Y54.969 F1000
G1 X12.266 Y55.01 F1000
G1 X12.983 Y55.063 F1000
G1 X13.675 Y55.13 F1000
G1 X14.342 Y55.216 F1000
G1 X14.983 Y55.322 F1000
G1 X15.597 Y55.451 F1000
G1 X16.194 Y55.607 F1000
G1 X16.794 Y55.795 F1000
G1 X17.408 Y56.018 F1000
G1 X18.039 Y56.271 F1000
G1 X18.686 Y56.553 F1000
G1 X19.345 Y56.855 F1000
G1 X20.413 Y57.369 F1000
G1 X21.119 Y57.935 F1000
G1 X21.537 Y58.292 F1000
G1 X21.915 Y58.636 F1000
G1 X22.258 Y58.98 F1000
G1 X22.385 Y59.12 F1000
G1 X22.512 Y59.269 F1000
G1 X22.625 Y59.412 F1000
G1 X22.724 Y59.549 F1000
G1 X22.809 Y59.679 F1000
G1 X22.883 Y59.806 F1000
G1 X22.951 Y59.935 F1000
G1 X23.017 Y60.077 F1000
G1 X23.08 Y60.234 F1000
G1 X23.142 Y60.406 F1000
G1 X23.202 Y60.593 F1000
G1 X23.253 Y60.775 F1000
G1 X23.363 Y61.249 F1000
G1 X23.456 Y61.752 F1000
G1 X23.536 Y62.296 F1000
G1 X23.664 Y63.368 F1000
G1 Y64.926 F1000
G1 X23.613 Y65.652 F1000
G1 X23.58 Y66.011 F1000
G1 X23.541 Y66.346 F1000
G1 X23.495 Y66.649 F1000
G1 X23.443 Y66.917 F1000
G1 X23.384 Y67.15 F1000
G1 X23.321 Y67.35 F1000
G1 X23.247 Y67.537 F1000
G1 X23.151 Y67.739 F1000
G1 X23.027 Y67.966 F1000
G1 X22.874 Y68.216 F1000
G1 X22.692 Y68.49 F1000
G1 X22.489 Y68.779 F1000
G1 X22.202 Y69.167 F1000
G1 X21.747 Y69.562 F1000
G1 X21.056 Y70.134 F1000
G1 X20.746 Y70.373 F1000
G1 X20.434 Y70.599 F1000
G1 X20.13 Y70.803 F1000
G1 X19.825 Y70.99 F1000
G1 X19.503 Y71.169 F1000
G1 X19.159 Y71.345 F1000
G1 X18.795 Y71.518 F1000
G1 X18.42 Y71.684 F1000
G1 X17.574 Y72.032 F1000
G1 X16.723 Y72.363 F1000
G1 X12.125 Y73.99 F1000
G2 X12.1 Y73.999 I1.053 J2.976 F1000
G1 X10.942 Y74.42 F1000
G2 X10.873 Y74.446 I1.078 J2.967 F1000
G1 X10.3 Y74.669 F1000
G2 X10.217 Y74.703 I1.148 J2.941 F1000
G1 X9.652 Y74.942 F1000
G2 X9.543 Y74.991 I1.231 J2.907 F1000
G1 X8.988 Y75.251 F1000
G2 X8.869 Y75.31 I1.34 J2.859 F1000
G1 X8.325 Y75.593 F1000
G2 X8.222 Y75.649 I1.458 J2.8 F1000
G1 X7.153 Y76.258 F1000
G2 X6.648 Y76.614 I1.562 J2.744 F1000
G1 X6.421 Y76.811 F1000
G2 X6.328 Y76.895 I2.066 J2.387 F1000
G1 X6.112 Y77.098 F1000
G2 X5.93 Y77.282 I2.159 J2.304 F1000
G1 X5.735 Y77.497 F1000
G2 X5.553 Y77.718 I2.34 J2.119 F1000
G1 X5.467 Y77.832 F1000
G2 X5.33 Y78.031 I2.523 J1.898 F1000
G1 X5.253 Y78.15 F1000
G2 X5.114 Y78.39 I2.661 J1.7 F1000
G1 X5.049 Y78.515 F1000
G2 X4.934 Y78.761 I2.8 J1.459 F1000
G1 X4.88 Y78.892 F1000
G2 X4.771 Y79.197 I2.915 J1.213 F1000
G1 X4.688 Y79.473 F1000
G2 X4.617 Y79.756 I3.024 J0.908 F1000
G1 X4.559 Y80.046 F1000
G2 X4.534 Y80.184 I3.095 J0.624 F1000
G1 X4.488 Y80.48 F1000
G2 X4.45 Y80.966 I3.119 J0.486 F1000
G1 Y81.537 F1000
G2 X4.483 Y81.995 I3.157 F1000
G1 X4.528 Y82.296 F1000
G2 X4.552 Y82.44 I3.124 J-0.457 F1000
G1 X4.609 Y82.735 F1000
G2 X4.682 Y83.031 I3.099 J-0.601 F1000
G1 X4.765 Y83.311 F1000
G2 X4.879 Y83.631 I3.027 J-0.898 F1000
G1 X4.934 Y83.763 F1000
G2 X5.056 Y84.022 I2.913 J-1.218 F1000
G1 X5.123 Y84.147 F1000
G2 X5.277 Y84.408 I2.79 J-1.477 F1000
G1 X5.355 Y84.527 F1000
G2 X5.51 Y84.742 I2.636 J-1.738 F1000
G1 X5.599 Y84.855 F1000
G2 X5.805 Y85.091 I2.481 J-1.952 F1000
G1 X6.009 Y85.303 F1000
G2 X6.213 Y85.497 I2.275 J-2.189 F1000
G1 X6.44 Y85.694 F1000
G2 X6.544 Y85.781 I2.071 J-2.383 F1000
G1 X6.783 Y85.971 F1000
G2 X7.435 Y86.372 I1.967 J-2.47 F1000
G1 X7.841 Y86.558 F1000
G2 X7.926 Y86.595 I1.315 J-2.87 F1000
G1 X8.336 Y86.769 F1000
G2 X8.514 Y86.838 I1.23 J-2.908 F1000
G1 X8.93 Y86.985 F1000
G2 X9.123 Y87.046 I1.052 J-2.977 F1000
G1 X9.335 Y87.106 F1000
G2 X9.492 Y87.146 I0.858 J-3.038 F1000
G1 X9.706 Y87.195 F1000
G2 X9.913 Y87.235 I0.701 J-3.078 F1000
G1 X10.348 Y87.304 F1000
G2 X10.566 Y87.33 I0.494 J-3.118 F1000
G1 X11.008 Y87.369 F1000
G2 X11.15 Y87.378 I0.276 J-3.145 F1000
G1 X11.597 Y87.397 F1000
G2 X11.669 Y87.399 I0.133 J-3.154 F1000
G1 X12.117 Y87.408 F1000
G2 X12.287 Y87.407 I0.061 J-3.156 F1000
G1 X13.427 Y87.368 F1000
G2 X13.531 Y87.362 I-0.108 J-3.155 F1000
G1 X14.099 Y87.324 F1000
G2 X14.223 Y87.313 I-0.212 J-3.15 F1000
G1 X14.788 Y87.253 F1000
G2 X14.945 Y87.232 I-0.336 J-3.139 F1000
G1 X15.506 Y87.143 F1000
G2 X15.641 Y87.119 I-0.494 J-3.118 F1000
G1 X16.198 Y87.005 F1000
G2 X16.309 Y86.981 I-0.629 J-3.094 F1000
G1 X17.418 Y86.714 F1000
G2 X17.8 Y86.596 I-0.739 J-3.069 F1000
G1 X18.995 Y86.141 F1000
G2 X19.097 Y86.101 I-1.121 J-2.951 F1000
G1 X19.685 Y85.854 F1000
G2 X19.804 Y85.801 I-1.223 J-2.911 F1000
G1 X20.381 Y85.53 F1000
G2 X20.507 Y85.467 I-1.342 J-2.857 F1000
G1 X20.529 Y85.456 F1000
G1 X20.718 Y84.499 Z-4.154 F1000
G1 X20.918 Y83.395 Z-2.662 F1000
G1 X21.25 Y81.395 Z-0.001 F1000
G1 X20.918 Y83.395 Z-2.662 F1000
G1 X20.718 Y84.499 Z-4.154 F1000
G1 X20.529 Y85.456 Z-5.468 F1000
G1 X21.679 Y86.833 F1000
G1 X22.077 Y86.904 Z-5.019 F1000
G1 X22.598 Y86.989 Z-4.42 F1000
G1 X23.156 Y87.073 Z-3.771 F1000
G1 X23.739 Y87.153 Z-3.086 F1000
G1 X25.008 Y87.313 Z-1.576 F1000
G1 X26.32 Y87.466 Z-0.001 F1000
G1 X25.008 Y87.313 Z-1.576 F1000
G1 X23.739 Y87.153 Z-3.086 F1000
G1 X23.156 Y87.073 Z-3.771 F1000
G1 X22.598 Y86.989 Z-4.42 F1000
G1 X22.077 Y86.904 Z-5.019 F1000
G1 X21.679 Y86.833 Z-5.468 F1000
G1 X21.617 Y86.868 F1000
G1 X21.28 Y87.046 F1000
G1 X20.927 Y87.22 F1000
G1 X20.556 Y87.39 F1000
G1 X20.178 Y87.555 F1000
G1 X19.341 Y87.896 F1000
G1 X18.585 Y88.19 F1000
G1 X17.737 Y88.441 F1000
G1 X16.794 Y88.705 F1000
G1 X16.356 Y88.817 F1000
G1 X15.918 Y88.92 F1000
G1 X15.492 Y89.01 F1000
G1 X15.074 Y89.086 F1000
G1 X14.654 Y89.149 F1000
G1 X14.221 Y89.203 F1000
G1 X13.774 Y89.247 F1000
G1 X13.322 Y89.283 F1000
G1 X12.344 Y89.34 F1000
G1 X11.451 Y89.378 F1000
G1 X10.539 Y89.347 F1000
G1 X9.544 Y89.296 F1000
G1 X9.085 Y89.262 F1000
G1 X8.631 Y89.22 F1000
G1 X8.193 Y89.168 F1000
G1 X7.769 Y89.105 F1000
G1 X7.352 Y89.029 F1000
G1 X6.928 Y88.939 F1000
G1 X6.492 Y88.833 F1000
G1 X6.054 Y88.716 F1000
G1 X5.104 Y88.438 F1000
G1 X4.286 Y88.183 F1000
G1 X3.677 Y87.916 F1000
G1 X2.966 Y87.584 F1000
G1 X2.667 Y87.432 F1000
G1 X2.379 Y87.275 F1000
G1 X2.116 Y87.119 F1000
G1 X1.876 Y86.962 F1000
G1 X1.65 Y86.799 F1000
G1 X1.422 Y86.616 F1000
G1 X1.183 Y86.409 F1000
G1 X0.945 Y86.189 F1000
G1 X0.398 Y85.643 F1000
G1 X0.019 Y85.245 F1000
G1 X-0.234 Y84.861 F1000
G1 X-0.584 Y84.289 F1000
G1 X-0.71 Y84.062 F1000
G1 X-0.822 Y83.839 F1000
G1 X-0.912 Y83.639 F1000
G1 X-0.981 Y83.455 F1000
G1 X-1.039 Y83.266 F1000
G1 X-1.093 Y83.051 F1000
G1 X-1.141 Y82.805 F1000
G1 X-1.181 Y82.548 F1000
G1 X-1.257 Y81.879 F1000
G1 X-1.307 Y81.265 F1000
G1 Y79.724 F1000
G1 X-1.258 Y79.042 F1000
G1 X-1.226 Y78.702 F1000
G1 X-1.188 Y78.386 F1000
G1 X-1.145 Y78.103 F1000
G1 X-1.096 Y77.853 F1000
G1 X-1.041 Y77.638 F1000
G1 X-0.983 Y77.454 F1000
G1 X-0.915 Y77.282 F1000
G1 X-0.826 Y77.094 F1000
G1 X-0.71 Y76.882 F1000
G1 X-0.566 Y76.646 F1000
G1 X-0.396 Y76.387 F1000
G1 X-0.205 Y76.112 F1000
G1 X0.052 Y75.761 F1000
G1 X0.502 Y75.371 F1000
G1 X1.197 Y74.8 F1000
G1 X1.507 Y74.561 F1000
G1 X1.819 Y74.336 F1000
G1 X2.124 Y74.134 F1000
G1 X2.432 Y73.947 F1000
G1 X2.758 Y73.767 F1000
G1 X3.105 Y73.59 F1000
G1 X3.473 Y73.417 F1000
G1 X3.851 Y73.25 F1000
G1 X4.703 Y72.902 F1000
G1 X5.568 Y72.567 F1000
G1 X10.082 Y70.945 F1000
G1 X11.223 Y70.553 F1000
G2 X11.303 Y70.525 I-1.024 J-2.986 F1000
G1 X11.878 Y70.31 F1000
G2 X11.974 Y70.272 I-1.104 J-2.958 F1000
G1 X12.54 Y70.04 F1000
G2 X12.665 Y69.985 I-1.2 J-2.92 F1000
G1 X13.22 Y69.728 F1000
G2 X13.356 Y69.661 I-1.326 J-2.865 F1000
G1 X13.898 Y69.378 F1000
G2 X13.993 Y69.327 I-1.461 J-2.798 F1000
G1 X14.526 Y69.025 F1000
G2 X14.573 Y68.998 I-1.556 J-2.747 F1000
G1 X15.102 Y68.686 F1000
G2 X15.705 Y68.225 I-1.602 J-2.72 F1000
G1 X15.946 Y67.99 F1000
G2 X16.039 Y67.896 I-2.205 J-2.259 F1000
G1 X16.267 Y67.654 F1000
G2 X16.445 Y67.448 I-2.297 J-2.165 F1000
G1 X16.647 Y67.193 F1000
G2 X16.821 Y66.949 I-2.475 J-1.96 F1000
G1 X16.908 Y66.815 F1000
G2 X17.038 Y66.595 I-2.65 J-1.716 F1000
G1 X17.114 Y66.455 F1000
G2 X17.234 Y66.207 I-2.78 J-1.496 F1000
G1 X17.297 Y66.061 F1000
G2 X17.387 Y65.825 I-2.9 J-1.247 F1000
G1 X17.438 Y65.674 F1000
G2 X17.52 Y65.389 I-2.99 J-1.012 F1000
G1 X17.595 Y65.072 F1000
G2 X17.646 Y64.808 I-3.072 J-0.727 F1000
G1 X17.694 Y64.479 F1000
G2 X17.711 Y64.351 I-3.123 J-0.463 F1000
G1 X17.746 Y64.015 F1000
G2 X17.764 Y63.68 I-3.139 J-0.335 F1000
G1 Y63.109 F1000
G2 X17.725 Y62.612 I-3.157 F1000
G1 X17.668 Y62.258 F1000
G2 X17.64 Y62.103 I-3.118 J0.497 F1000
G1 X17.567 Y61.76 F1000
G2 X17.513 Y61.542 I-3.089 J0.652 F1000
G1 X17.466 Y61.377 F1000
G2 X17.4 Y61.174 I-3.035 J0.87 F1000
G1 X17.343 Y61.015 F1000
G2 X17.242 Y60.77 I-2.969 J1.073 F1000
G1 X17.173 Y60.619 F1000
G2 X17.028 Y60.341 I-2.869 J1.318 F1000
G1 X16.945 Y60.199 F1000
G2 X16.762 Y59.922 I-2.724 J1.597 F1000
G1 X16.664 Y59.789 F1000
G2 X16.483 Y59.565 I-2.541 J1.874 F1000
G1 X16.372 Y59.441 F1000
G2 X16.206 Y59.268 I-2.36 J2.097 F1000
G1 X16.084 Y59.15 F1000
G2 X15.94 Y59.019 I-2.194 J2.27 F1000
G1 X15.809 Y58.907 F1000
G2 X15.649 Y58.779 I-2.05 J2.401 F1000
G1 X15.366 Y58.567 F1000
G2 X15.249 Y58.484 I-1.89 J2.529 F1000
G1 X14.952 Y58.282 F1000
G2 X14.317 Y57.95 I-1.773 J2.612 F1000
G1 X13.81 Y57.754 F1000
G2 X13.733 Y57.725 I-1.138 J2.945 F1000
G1 X13.224 Y57.543 F1000
G2 X13.068 Y57.492 I-1.062 J2.973 F1000
G1 X12.553 Y57.338 F1000
G2 X12.381 Y57.292 I-0.906 J3.024 F1000
G1 X12.121 Y57.229 F1000
G2 X11.988 Y57.201 I-0.735 J3.07 F1000
G1 X11.725 Y57.15 F1000
G2 X11.544 Y57.12 I-0.602 J3.099 F1000
G1 X11.012 Y57.048 F1000
G2 X10.826 Y57.029 I-0.422 J3.129 F1000
G1 X10.288 Y56.988 F1000
G2 X10.164 Y56.982 I-0.236 J3.148 F1000
G1 X9.621 Y56.962 F1000
G2 X9.56 Y56.961 I-0.112 J3.155 F1000
G1 X9.015 Y56.952 F1000
G2 X8.824 Y56.955 I-0.05 J3.157 F1000
G1 X7.497 Y57.014 F1000
G2 X7.379 Y57.021 I0.14 J3.154 F1000
G1 X6.72 Y57.075 F1000
G2 X6.578 Y57.09 I0.258 J3.146 F1000
G1 X5.923 Y57.174 F1000
G2 X5.748 Y57.201 I0.4 J3.132 F1000
G1 X5.099 Y57.322 F1000
G2 X4.953 Y57.352 I0.575 J3.104 F1000
G1 X4.309 Y57.503 F1000
G2 X4.214 Y57.527 I0.721 J3.074 F1000
G1 X3.573 Y57.699 F1000
G2 X3.525 Y57.712 I0.816 J3.05 F1000
G1 X2.886 Y57.894 F1000
G2 X2.577 Y57.999 I0.864 J3.036 F1000
G1 X1.915 Y58.264 F1000
G2 X1.873 Y58.281 I1.173 J2.931 F1000
G1 X1.215 Y58.555 F1000
G2 X1.13 Y58.593 I1.215 J2.914 F1000
G1 X0.483 Y58.885 F1000
G2 X0.356 Y58.946 I1.301 J2.877 F1000
G1 X-0.276 Y59.266 F1000
G2 X-0.418 Y59.343 I1.427 J2.816 F1000
G1 X-0.644 Y59.472 F1000
G1 X-1.989 Y57.909 F1000
G1 X-0.644 Y59.472 F1000
G1 X-0.789 Y60.322 Z-4.319 F1000
G1 X-0.964 Y61.481 Z-2.779 F1000
G1 X-1.25 Y63.608 Z-0.002 F1000
G1 Z5 F1000
G1 X-22.249 Y102.893 F1000
; MOVEMENT_LEAD_IN
G1 Z-0.001 F1000
; MOVEMENT_CUTTING
G1 X-18.87 Y99.737 Z-5.468 F1000
G1 X-14.559 F1000
G1 X-11.179 Y102.893 Z-0.001 F1000
G1 X-14.559 Y99.737 Z-5.468 F1000
G1 X-15.484 Y86.194 F1000
G1 X-12.536 Y83.038 Z-0.001 F1000
G1 X-15.484 Y86.194 Z-5.468 F1000
G1 X-17.944 F1000
G1 X-20.892 Y83.038 Z-0.001 F1000
G1 X-17.944 Y86.194 Z-5.468 F1000
G1 X-18.87 Y99.737 F1000
G1 Z5 F1000
G1 X-64.464 Y91.394 F1000
; MOVEMENT_LEAD_IN
G1 Z-0.001 F1000
; MOVEMENT_CUTTING
G1 X-60.173 Y88.237 Z-5.468 F1000
G1 X-50.141 Y56.052 F1000
G1 X-52.464 Y52.895 Z-0.001 F1000
G1 X-50.141 Y56.052 Z-5.468 F1000
G1 X-47.393 F1000
G2 X-44.349 Y52.057 J-3.157 F1000
G1 X-45.135 Y49.2 F1000
G2 X-45.159 Y49.115 I-3.044 J0.837 F1000
G1 X-45.311 Y48.619 F1000
G2 X-45.339 Y48.533 I-3.019 J0.923 F1000
G1 X-45.503 Y48.045 F1000
G2 X-45.567 Y47.872 I-2.992 J1.009 F1000
G1 X-45.757 Y47.401 F1000
G2 X-45.838 Y47.218 I-2.928 J1.181 F1000
G1 X-45.946 Y46.991 F1000
G2 X-46.022 Y46.843 I-2.847 J1.364 F1000
G1 X-46.142 Y46.623 F1000
G2 X-46.239 Y46.458 I-2.772 J1.512 F1000
G1 X-46.372 Y46.246 F1000
G2 X-46.483 Y46.08 I-2.675 J1.676 F1000
G1 X-46.63 Y45.876 F1000
G2 X-46.735 Y45.737 I-2.564 J1.842 F1000
G1 X-46.893 Y45.541 F1000
G2 X-46.985 Y45.432 I-2.458 J1.981 F1000
G1 X-47.153 Y45.242 F1000
G2 X-47.259 Y45.128 I-2.366 J2.09 F1000
G1 X-47.617 Y44.761 F1000
G2 X-47.695 Y44.684 I-2.26 J2.204 F1000
G1 X-48.068 Y44.327 F1000
G2 X-48.823 Y43.792 I-2.182 J2.282 F1000
G1 X-49.301 Y43.55 F1000
G2 X-49.389 Y43.508 I-1.427 J2.816 F1000
G1 X-49.871 Y43.282 F1000
G2 X-49.995 Y43.227 I-1.34 J2.859 F1000
G1 X-50.239 Y43.125 F1000
G2 X-50.355 Y43.079 I-1.215 J2.914 F1000
G1 X-50.602 Y42.988 F1000
G2 X-50.746 Y42.938 I-1.1 J2.959 F1000
G1 X-50.996 Y42.859 F1000
G2 X-51.16 Y42.811 I-0.956 J3.009 F1000
G1 X-51.413 Y42.746 F1000
G2 X-51.571 Y42.709 I-0.792 J3.056 F1000
G1 X-51.828 Y42.657 F1000
G2 X-51.968 Y42.631 I-0.634 J3.093 F1000
G1 X-52.228 Y42.59 F1000
G2 X-52.396 Y42.568 I-0.494 J3.118 F1000
G1 X-52.923 Y42.513 F1000
G2 X-53.08 Y42.501 I-0.326 J3.14 F1000
G1 X-53.614 Y42.472 F1000
G2 X-53.692 Y42.469 I-0.169 J3.153 F1000
G1 X-54.229 Y42.453 F1000
G2 X-54.454 Y42.455 I-0.092 J3.156 F1000
G1 X-55.608 Y42.503 F1000
G2 X-55.698 Y42.508 I0.133 J3.154 F1000
G1 X-56.273 Y42.549 F1000
G2 X-56.336 Y42.554 I0.222 J3.149 F1000
G1 X-56.376 Y42.607 Z-5.383 F1000
G1 X-56.97 Y43.4 Z-4.127 F1000
G1 X-57.501 Y44.139 Z-2.997 F1000
G1 X-57.991 Y44.844 Z-1.946 F1000
G1 X-58.892 Y46.179 Z-0.001 F1000
G1 X-57.991 Y44.844 Z-1.946 F1000
G1 X-57.501 Y44.139 Z-2.997 F1000
G1 X-56.97 Y43.4 Z-4.127 F1000
G1 X-56.376 Y42.607 Z-5.383 F1000
G1 X-56.336 Y42.554 Z-5.468 F1000
G1 X-56.63 Y40.913 F1000
G1 X-56.967 Y40.684 Z-4.964 F1000
G1 X-57.446 Y40.367 Z-4.244 F1000
G1 X-57.952 Y40.04 Z-3.481 F1000
G1 X-59.075 Y39.333 Z-1.781 F1000
G1 X-60.249 Y38.609 Z-0.001 F1000
G1 X-59.075 Y39.333 Z-1.781 F1000
G1 X-57.952 Y40.04 Z-3.481 F1000
G1 X-57.446 Y40.367 Z-4.244 F1000
G1 X-56.967 Y40.684 Z-4.964 F1000
G1 X-56.63 Y40.913 Z-5.468 F1000
G1 X-56.542 Y40.896 F1000
G1 X-56.185 Y40.836 F1000
G1 X-55.82 Y40.786 F1000
G1 X-55.456 Y40.747 F1000
G1 X-54.634 Y40.685 F1000
G1 X-53.78 Y40.647 F1000
G1 X-52.995 Y40.625 F1000
G1 X-51.861 Y40.68 F1000
G1 X-51.286 Y40.718 F1000
G1 X-50.733 Y40.766 F1000
G1 X-50.211 Y40.828 F1000
G1 X-49.719 Y40.905 F1000
G1 X-49.261 Y40.998 F1000
G1 X-48.811 Y41.115 F1000
G1 X-48.631 Y41.17 F1000
G1 X-48.455 Y41.231 F1000
G1 X-48.022 Y41.403 F1000
G1 X-47.594 Y41.6 F1000
G1 X-47.144 Y41.831 F1000
G1 X-46.675 Y42.093 F1000
G1 X-46.191 Y42.38 F1000
G1 X-45.51 Y42.804 F1000
G1 X-44.881 Y43.501 F1000
G1 X-44.464 Y43.982 F1000
G1 X-44.072 Y44.455 F1000
G1 X-43.714 Y44.917 F1000
G1 X-43.391 Y45.37 F1000
G1 X-43.104 Y45.815 F1000
G1 X-42.844 Y46.271 F1000
G1 X-42.601 Y46.755 F1000
G1 X-42.37 Y47.27 F1000
G1 X-42.149 Y47.816 F1000
G1 X-41.938 Y48.392 F1000
G1 X-41.733 Y48.994 F1000
G1 X-41.533 Y49.618 F1000
G1 X-41.135 Y50.93 F1000
G1 X-30.439 Y88.237 F1000
G1 X-26.251 Y91.394 Z-0.001 F1000
G1 X-30.439 Y88.237 Z-5.468 F1000
G1 X-35.848 F1000
G1 X-38.392 Y91.394 Z-0.001 F1000
G1 X-35.848 Y88.237 Z-5.468 F1000
G1 X-41.736 Y61.152 F1000
G2 X-47.892 Y61.089 I-3.085 J0.671 F1000
G1 X-54.384 Y88.237 F1000
G1 X-60.173 F1000
G1 X-54.384 F1000
G1 X-51.893 Y91.394 Z-0.001 F1000
G1 Z5 F1000
G1 X-72.25 Y63.251 F1000
; MOVEMENT_LEAD_IN
G1 Z-0.001 F1000
; MOVEMENT_CUTTING
G1 X-72.86 Y61.362 Z-2.496 F1000
G1 X-73.181 Y60.388 Z-3.794 F1000
G1 X-73.52 Y59.387 Z-5.14 F1000
G1 X-73.605 Y59.146 Z-5.468 F1000
G1 X-72.71 Y57.51 F1000
G1 X-72.32 Y57.39 Z-4.974 F1000
G1 X-71.103 Y57.037 Z-3.417 F1000
G1 X-69.81 Y56.682 Z-1.747 F1000
G1 X-68.465 Y56.323 Z-0.001 F1000
G1 X-69.81 Y56.682 Z-1.747 F1000
G1 X-71.103 Y57.037 Z-3.417 F1000
G1 X-72.32 Y57.39 Z-4.974 F1000
G1 X-72.71 Y57.51 Z-5.468 F1000
G1 X-72.805 Y57.461 F1000
G1 X-73.166 Y57.286 F1000
G1 X-73.534 Y57.12 F1000
G1 X-73.904 Y56.962 F1000
G1 X-74.723 Y56.64 F1000
G1 X-75.574 Y56.33 F1000
G1 X-76.37 Y56.053 F1000
G1 X-77.251 Y55.809 F1000
G1 X-78.191 Y55.564 F1000
G1 X-79.111 Y55.352 F1000
G1 X-79.532 Y55.269 F1000
G1 X-79.959 Y55.196 F1000
G1 X-80.388 Y55.134 F1000
G1 X-80.814 Y55.084 F1000
G1 X-81.753 Y55.004 F1000
G1 X-82.722 Y54.949 F1000
G1 X-83.604 Y54.912 F1000
G1 X-84.792 Y54.964 F1000
G1 X-85.416 Y55 F1000
G1 X-86.023 Y55.045 F1000
G1 X-86.609 Y55.101 F1000
G1 X-87.174 Y55.172 F1000
G1 X-87.715 Y55.258 F1000
G1 X-88.234 Y55.361 F1000
G1 X-88.742 Y55.486 F1000
G1 X-89.255 Y55.637 F1000
G1 X-89.783 Y55.813 F1000
G1 X-90.326 Y56.014 F1000
G1 X-90.885 Y56.236 F1000
G1 X-91.455 Y56.474 F1000
G1 X-92.44 Y56.904 F1000
G1 X-93.207 Y57.393 F1000
G1 X-93.651 Y57.686 F1000
G1 X-94.074 Y57.978 F1000
G1 X-94.47 Y58.266 F1000
G1 X-94.835 Y58.552 F1000
G1 X-95.171 Y58.837 F1000
G1 X-95.477 Y59.123 F1000
G1 X-95.766 Y59.424 F1000
G1 X-96.053 Y59.753 F1000
G1 X-96.341 Y60.113 F1000
G1 X-96.632 Y60.503 F1000
G1 X-96.927 Y60.922 F1000
G1 X-97.224 Y61.361 F1000
G1 X-97.718 Y62.122 F1000
G1 X-98.11 Y63.001 F1000
G1 X-98.333 Y63.518 F1000
G1 X-98.538 Y64.022 F1000
G1 X-98.725 Y64.514 F1000
G1 X-98.889 Y64.988 F1000
G1 X-99.03 Y65.449 F1000
G1 X-99.147 Y65.903 F1000
G1 X-99.246 Y66.365 F1000
G1 X-99.327 Y66.845 F1000
G1 X-99.395 Y67.349 F1000
G1 X-99.451 Y67.878 F1000
G1 X-99.497 Y68.429 F1000
G1 X-99.534 Y68.993 F1000
G1 X-99.593 Y70.119 F1000
G1 Y73.89 F1000
G1 X-99.538 Y75.046 F1000
G1 X-99.502 Y75.626 F1000
G1 X-99.458 Y76.19 F1000
G1 X-99.404 Y76.733 F1000
G1 X-99.337 Y77.256 F1000
G1 X-99.257 Y77.757 F1000
G1 X-99.161 Y78.237 F1000
G1 X-99.046 Y78.707 F1000
G1 X-98.908 Y79.186 F1000
G1 X-98.746 Y79.679 F1000
G1 X-98.563 Y80.187 F1000
G1 X-98.361 Y80.709 F1000
G1 X-98.144 Y81.243 F1000
G1 X-97.754 Y82.164 F1000
G1 X-97.287 Y82.93 F1000
G1 X-97.01 Y83.369 F1000
G1 X-96.734 Y83.787 F1000
G1 X-96.46 Y84.178 F1000
G1 X-96.189 Y84.541 F1000
G1 X-95.918 Y84.873 F1000
G1 X-95.645 Y85.177 F1000
G1 X-95.357 Y85.466 F1000
G1 X-95.042 Y85.754 F1000
G1 X-94.696 Y86.045 F1000
G1 X-94.322 Y86.339 F1000
G1 X-93.92 Y86.638 F1000
G1 X-93.497 Y86.939 F1000
G1 X-92.777 Y87.435 F1000
G1 X-91.907 Y87.847 F1000
G1 X-91.393 Y88.08 F1000
G1 X-90.891 Y88.297 F1000
G1 X-90.406 Y88.491 F1000
G1 X-89.937 Y88.662 F1000
G1 X-89.483 Y88.807 F1000
G1 X-89.037 Y88.927 F1000
G1 X-88.581 Y89.027 F1000
G1 X-88.101 Y89.111 F1000
G1 X-87.596 Y89.181 F1000
G1 X-87.068 Y89.238 F1000
G1 X-86.517 Y89.284 F1000
G1 X-85.95 Y89.322 F1000
G1 X-84.896 Y89.376 F1000
G1 X-83.275 Y89.289 F1000
G1 X-82.448 Y89.227 F1000
G1 X-81.65 Y89.147 F1000
G1 X-80.874 Y89.041 F1000
G1 X-80.528 Y88.982 F1000
G1 X-80.178 Y88.913 F1000
G1 X-79.84 Y88.837 F1000
G1 X-79.513 Y88.753 F1000
G1 X-79.198 Y88.662 F1000
G1 X-78.896 Y88.562 F1000
G1 X-78.604 Y88.453 F1000
G1 X-78.319 Y88.334 F1000
G1 X-78.032 Y88.201 F1000
G1 X-77.741 Y88.053 F1000
G1 X-77.445 Y87.89 F1000
G1 X-77.144 Y87.713 F1000
G1 X-76.839 Y87.521 F1000
G1 X-76.54 Y87.324 F1000
G1 X-75.89 Y86.866 F1000
G1 X-75.243 Y86.379 F1000
G1 X-74.266 Y85.605 F1000
G1 X-73.513 Y84.431 F1000
G1 X-73.05 Y83.669 F1000
G1 X-72.614 Y82.906 F1000
G1 X-72.423 Y82.55 F1000
G1 X-72.239 Y82.187 F1000
G1 X-72.067 Y81.829 F1000
G1 X-71.91 Y81.476 F1000
G1 X-71.766 Y81.126 F1000
G1 X-71.637 Y80.78 F1000
G1 X-71.52 Y80.433 F1000
G1 X-71.414 Y80.078 F1000
G1 X-71.317 Y79.713 F1000
G1 X-71.23 Y79.338 F1000
G1 X-71.151 Y78.954 F1000
G1 X-71.08 Y78.559 F1000
G1 X-71.018 Y78.154 F1000
G1 X-70.964 Y77.754 F1000
G1 X-70.873 Y76.883 F1000
G1 X-70.806 Y75.994 F1000
G1 X-70.758 Y75.081 F1000
G1 X-70.694 Y73.239 F1000
G1 X-70.72 Y72.26 F1000
G1 X-70.734 Y71.98 F1000
G1 X-69.979 Y71.188 Z-4.096 F1000
G1 X-68.92 Y70.039 Z-2.106 F1000
G1 X-67.822 Y68.823 Z-0.001 F1000
G1 X-68.92 Y70.039 Z-2.106 F1000
G1 X-69.979 Y71.188 Z-4.096 F1000
G1 X-70.734 Y71.98 Z-5.468 F1000
G1 X-90.821 F1000
G3 X-93.978 Y68.747 J-3.157 F1000
G1 X-93.956 Y67.87 F1000
G3 X-93.953 Y67.777 I3.156 J0.076 F1000
G1 X-93.906 Y66.908 F1000
G3 X-93.897 Y66.779 I3.153 J0.169 F1000
G1 X-93.856 Y66.35 F1000
G3 X-93.842 Y66.231 I3.143 J0.298 F1000
G1 X-93.786 Y65.807 F1000
G3 X-93.763 Y65.663 I3.129 J0.417 F1000
G1 X-93.688 Y65.245 F1000
G3 X-93.653 Y65.076 I3.107 J0.561 F1000
G1 X-93.555 Y64.665 F1000
G3 X-93.503 Y64.473 I3.072 J0.73 F1000
G1 X-93.38 Y64.071 F1000
G3 X-93.31 Y63.866 I3.019 J0.922 F1000
G1 X-93.159 Y63.472 F1000
G3 X-93.084 Y63.291 I2.949 J1.127 F1000
G1 X-92.908 Y62.906 F1000
G3 X-92.838 Y62.762 I2.873 J1.308 F1000
G1 X-92.642 Y62.383 F1000
G3 X-92.581 Y62.271 I2.804 J1.451 F1000
G1 X-92.369 Y61.898 F1000
G3 X-92.321 Y61.817 I2.743 J1.563 F1000
G1 X-92.096 Y61.448 F1000
G3 X-92.055 Y61.382 I2.695 J1.644 F1000
G1 X-91.583 Y60.65 F1000
G3 X-90.721 Y59.76 I2.654 J1.709 F1000
G1 X-90.013 Y59.272 F1000
G3 X-89.946 Y59.227 I1.792 J2.599 F1000
G1 X-89.589 Y58.994 F1000
G3 X-89.506 Y58.941 I1.725 J2.644 F1000
G1 X-89.144 Y58.721 F1000
G3 X-89.029 Y58.654 I1.642 J2.696 F1000
G1 X-88.662 Y58.451 F1000
G3 X-88.512 Y58.373 I1.528 J2.763 F1000
G1 X-88.137 Y58.191 F1000
G3 X-87.949 Y58.108 I1.378 J2.841 F1000
G1 X-87.566 Y57.952 F1000
G3 X-87.35 Y57.873 I1.19 J2.924 F1000
G1 X-86.957 Y57.745 F1000
G3 X-86.754 Y57.687 I0.975 J3.003 F1000
G1 X-86.352 Y57.585 F1000
G3 X-86.174 Y57.546 I0.772 J3.061 F1000
G1 X-85.764 Y57.467 F1000
G3 X-85.611 Y57.442 I0.594 J3.101 F1000
G1 X-85.194 Y57.383 F1000
G3 X-85.069 Y57.368 I0.442 J3.126 F1000
G1 X-84.647 Y57.325 F1000
G3 X-84.548 Y57.317 I0.317 J3.141 F1000
G1 X-84.121 Y57.287 F1000
G3 X-84.047 Y57.283 I0.218 J3.15 F1000
G1 X-83.617 Y57.264 F1000
G3 X-83.557 Y57.261 I0.144 J3.154 F1000
G1 X-82.691 Y57.239 F1000
G3 X-82.336 Y57.249 I0.083 J3.156 F1000
G1 X-80.977 Y57.366 F1000
G3 X-80.931 Y57.37 I-0.271 J3.145 F1000
G1 X-80.254 Y57.439 F1000
G3 X-80.197 Y57.445 I-0.317 J3.141 F1000
G1 X-79.523 Y57.525 F1000
G3 X-79.448 Y57.535 I-0.374 J3.135 F1000
G1 X-78.779 Y57.632 F1000
G3 X-78.684 Y57.647 I-0.449 J3.125 F1000
G1 X-78.02 Y57.763 F1000
G3 X-77.907 Y57.785 I-0.544 J3.11 F1000
G1 X-77.249 Y57.925 F1000
G3 X-77.117 Y57.955 I-0.657 J3.088 F1000
G1 X-76.467 Y58.123 F1000
G3 X-76.334 Y58.161 I-0.788 J3.057 F1000
G1 X-75.692 Y58.357 F1000
G3 X-75.576 Y58.395 I-0.921 J3.02 F1000
G1 X-74.94 Y58.616 F1000
G3 X-74.842 Y58.652 I-1.037 J2.982 F1000
G1 X-74.212 Y58.894 F1000
G3 X-74.132 Y58.926 I-1.135 J2.946 F1000
G1 X-73.605 Y59.146 F1000
G1 Z5 F1000
G1 X-77.455 Y72.644 F1000
; MOVEMENT_LEAD_IN
G1 Z-5.468 F1000
; MOVEMENT_CUTTING
G3 X-75.164 Y75.68 I-0.866 J3.036 F1000
G1 Y75.895 F1000
G3 X-75.165 Y75.942 I-3.157 F1000
G1 X-75.178 Y76.831 F1000
G3 X-75.18 Y76.905 I-3.157 J-0.048 F1000
G1 X-75.214 Y77.789 F1000
G3 X-75.22 Y77.893 I-3.155 J-0.122 F1000
G1 X-75.252 Y78.331 F1000
G3 X-75.26 Y78.426 I-3.149 J-0.226 F1000
G1 X-75.304 Y78.86 F1000
G3 X-75.318 Y78.975 I-3.141 J-0.321 F1000
G1 X-75.378 Y79.406 F1000
G3 X-75.4 Y79.541 I-3.127 J-0.435 F1000
G1 X-75.478 Y79.967 F1000
G3 X-75.51 Y80.12 I-3.105 J-0.57 F1000
G1 X-75.609 Y80.541 F1000
G3 X-75.653 Y80.708 I-3.073 J-0.723 F1000
G1 X-75.775 Y81.123 F1000
G3 X-75.824 Y81.274 I-3.029 J-0.89 F1000
G1 X-75.967 Y81.684 F1000
G3 X-76.013 Y81.807 I-2.98 J-1.041 F1000
G1 X-76.173 Y82.212 F1000
G3 X-76.213 Y82.308 I-2.935 J-1.164 F1000
G1 X-76.388 Y82.71 F1000
G3 X-76.42 Y82.781 I-2.895 J-1.259 F1000
G1 X-76.605 Y83.18 F1000
G3 X-76.633 Y83.238 I-2.863 J-1.33 F1000
G1 X-77.021 Y84.032 F1000
G3 X-77.637 Y84.889 I-2.836 J-1.387 F1000
G1 X-78.128 Y85.374 F1000
G3 X-78.192 Y85.436 I-2.22 J-2.244 F1000
G1 X-78.442 Y85.67 F1000
G3 X-78.522 Y85.743 I-2.156 J-2.306 F1000
G1 X-78.777 Y85.965 F1000
G3 X-78.891 Y86.059 I-2.076 J-2.379 F1000
G1 X-79.152 Y86.267 F1000
G3 X-79.305 Y86.381 I-1.962 J-2.473 F1000
G1 X-79.575 Y86.57 F1000
G3 X-79.772 Y86.697 I-1.81 J-2.587 F1000
G1 X-80.053 Y86.864 F1000
G3 X-80.295 Y86.994 I-1.613 J-2.714 F1000
G1 X-80.587 Y87.135 F1000
G3 X-80.843 Y87.244 I-1.371 J-2.844 F1000
G1 X-81.148 Y87.359 F1000
G3 X-81.378 Y87.436 I-1.115 J-2.954 F1000
G1 X-81.693 Y87.528 F1000
G3 X-81.89 Y87.579 I-0.885 J-3.031 F1000
G1 X-82.215 Y87.651 F1000
G3 X-82.378 Y87.683 I-0.688 J-3.081 F1000
G1 X-82.71 Y87.739 F1000
G3 X-82.837 Y87.758 I-0.524 J-3.113 F1000
G1 X-83.175 Y87.801 F1000
G3 X-83.269 Y87.811 I-0.398 J-3.132 F1000
G1 X-83.612 Y87.844 F1000
G3 X-83.689 Y87.851 I-0.303 J-3.142 F1000
G1 X-84.382 Y87.901 F1000
G3 X-84.876 Y87.897 I-0.226 J-3.149 F1000
G1 X-85.556 Y87.839 F1000
G3 X-85.636 Y87.831 I0.268 J-3.146 F1000
G1 X-85.972 Y87.794 F1000
G3 X-86.07 Y87.782 I0.349 J-3.138 F1000
G1 X-86.401 Y87.734 F1000
G3 X-86.534 Y87.712 I0.446 J-3.125 F1000
G1 X-86.858 Y87.652 F1000
G3 X-87.028 Y87.615 I0.579 J-3.103 F1000
G1 X-87.344 Y87.538 F1000
G3 X-87.549 Y87.481 I0.749 J-3.067 F1000
G1 X-87.856 Y87.384 F1000
G3 X-88.094 Y87.297 I0.953 J-3.01 F1000
G1 X-88.39 Y87.177 F1000
G3 X-88.653 Y87.055 I1.192 J-2.923 F1000
G1 X-88.935 Y86.909 F1000
G3 X-89.175 Y86.771 I1.455 J-2.802 F1000
G1 X-89.445 Y86.599 F1000
G3 X-89.638 Y86.466 I1.694 J-2.664 F1000
G1 X-89.898 Y86.272 F1000
G3 X-90.047 Y86.154 I1.887 J-2.531 F1000
G1 X-90.298 Y85.942 F1000
G3 X-90.409 Y85.844 I2.036 J-2.413 F1000
G1 X-90.653 Y85.618 F1000
G3 X-90.731 Y85.543 I2.146 J-2.315 F1000
G1 X-90.97 Y85.306 F1000
G3 X-91.032 Y85.242 I2.224 J-2.24 F1000
G1 X-91.501 Y84.75 F1000
G3 X-92.059 Y83.943 I2.286 J-2.177 F1000
G1 X-92.45 Y83.13 F1000
G3 X-92.476 Y83.075 I2.844 J-1.37 F1000
G1 X-92.663 Y82.667 F1000
G3 X-92.693 Y82.6 I2.87 J-1.315 F1000
G1 X-92.87 Y82.188 F1000
G3 X-92.907 Y82.098 I2.9 J-1.248 F1000
G1 X-93.071 Y81.683 F1000
G3 X-93.114 Y81.566 I2.937 J-1.157 F1000
G1 X-93.26 Y81.147 F1000
G3 X-93.306 Y81.004 I2.981 J-1.04 F1000
G1 X-93.432 Y80.58 F1000
G3 X-93.475 Y80.422 I3.027 J-0.898 F1000
G1 X-93.578 Y79.992 F1000
G3 X-93.61 Y79.846 I3.069 J-0.74 F1000
G1 X-93.693 Y79.411 F1000
G3 X-93.715 Y79.283 I3.101 J-0.594 F1000
G1 X-93.78 Y78.843 F1000
G3 X-93.795 Y78.734 I3.122 J-0.466 F1000
G1 X-93.845 Y78.291 F1000
G3 X-93.854 Y78.2 I3.137 J-0.357 F1000
G1 X-93.892 Y77.753 F1000
G3 X-93.899 Y77.654 I3.146 J-0.266 F1000
G1 X-93.947 Y76.753 F1000
G3 X-93.949 Y76.682 I3.153 J-0.167 F1000
G1 X-93.977 Y75.776 F1000
G3 X-90.821 Y72.523 I3.156 J-0.096 F1000
G1 X-78.321 F1000
G3 X-77.455 Y72.644 J3.157 F1000
G1 Z5 F1000
G1 X-117.307 F1000
; MOVEMENT_LEAD_IN
G1 Z-5.468 F1000
; MOVEMENT_CUTTING
G1 Y70.323 F1000
G2 Y70.285 I-3.157 F1000
G1 X-117.319 Y69.288 F1000
G2 X-117.321 Y69.217 I-3.157 J0.038 F1000
G1 X-117.355 Y68.225 F1000
G2 X-117.36 Y68.129 I-3.155 J0.108 F1000
G1 X-117.392 Y67.636 F1000
G2 X-117.399 Y67.539 I-3.15 J0.205 F1000
G1 X-117.446 Y67.05 F1000
G2 X-117.458 Y66.945 I-3.143 J0.302 F1000
G1 X-117.521 Y66.46 F1000
G2 X-117.541 Y66.329 I-3.131 J0.407 F1000
G1 X-117.624 Y65.849 F1000
G2 X-117.654 Y65.699 I-3.111 J0.538 F1000
G1 X-117.76 Y65.224 F1000
G2 X-117.799 Y65.068 I-3.081 J0.688 F1000
G1 X-117.929 Y64.6 F1000
G2 X-117.975 Y64.447 I-3.042 J0.844 F1000
G1 X-118.129 Y63.984 F1000
G2 X-118.171 Y63.866 I-2.996 J0.996 F1000
G1 X-118.344 Y63.407 F1000
G2 X-118.383 Y63.31 I-2.954 J1.115 F1000
G1 X-118.572 Y62.855 F1000
G2 X-118.6 Y62.789 I-2.915 J1.212 F1000
G1 X-118.8 Y62.337 F1000
G2 X-118.827 Y62.279 I-2.887 J1.278 F1000
G1 X-119.247 Y61.38 F1000
G2 X-119.848 Y60.511 I-2.86 J1.336 F1000
G1 X-120.367 Y59.979 F1000
G2 X-120.433 Y59.913 I-2.259 J2.205 F1000
G1 X-120.698 Y59.657 F1000
G2 X-120.775 Y59.585 I-2.193 J2.271 F1000
G1 X-121.045 Y59.341 F1000
G2 X-121.156 Y59.246 I-2.116 J2.343 F1000
G1 X-121.433 Y59.018 F1000
G2 X-121.591 Y58.896 I-2.005 J2.438 F1000
G1 X-121.879 Y58.688 F1000
G2 X-122.069 Y58.562 I-1.847 J2.561 F1000
G1 X-122.367 Y58.378 F1000
G2 X-122.614 Y58.24 I-1.657 J2.687 F1000
G1 X-122.926 Y58.085 F1000
G2 X-123.188 Y57.969 I-1.41 J2.825 F1000
G1 X-123.514 Y57.841 F1000
G2 X-123.747 Y57.761 I-1.148 J2.941 F1000
G1 X-124.084 Y57.659 F1000
G2 X-124.287 Y57.605 I-0.915 J3.021 F1000
G1 X-124.635 Y57.524 F1000
G2 X-124.801 Y57.49 I-0.712 J3.076 F1000
G1 X-125.157 Y57.428 F1000
G2 X-125.287 Y57.408 I-0.546 J3.109 F1000
G1 X-125.65 Y57.359 F1000
G2 X-125.747 Y57.348 I-0.416 J3.129 F1000
G1 X-126.115 Y57.311 F1000
G2 X-126.193 Y57.304 I-0.319 J3.141 F1000
G1 X-126.938 Y57.247 F1000
G2 X-127.417 Y57.246 I-0.241 J3.148 F1000
G1 X-128.158 Y57.303 F1000
G2 X-128.237 Y57.309 I0.238 J3.148 F1000
G1 X-128.604 Y57.346 F1000
G2 X-128.702 Y57.358 I0.317 J3.141 F1000
G1 X-129.063 Y57.406 F1000
G2 X-129.193 Y57.426 I0.415 J3.13 F1000
G1 X-129.548 Y57.488 F1000
G2 X-129.719 Y57.523 I0.545 J3.11 F1000
G1 X-130.064 Y57.603 F1000
G2 X-130.263 Y57.657 I0.716 J3.075 F1000
G1 X-130.599 Y57.758 F1000
G2 X-130.839 Y57.842 I0.915 J3.021 F1000
G1 X-131.162 Y57.969 F1000
G2 X-131.423 Y58.085 I1.155 J2.938 F1000
G1 X-131.733 Y58.241 F1000
G2 X-131.982 Y58.38 I1.416 J2.822 F1000
G1 X-132.278 Y58.564 F1000
G2 X-132.474 Y58.696 I1.665 J2.682 F1000
G1 X-132.759 Y58.903 F1000
G2 X-132.914 Y59.024 I1.861 J2.551 F1000
G1 X-133.189 Y59.253 F1000
G2 X-133.304 Y59.353 I2.016 J2.43 F1000
G1 X-133.571 Y59.597 F1000
G2 X-133.652 Y59.674 I2.131 J2.329 F1000
G1 X-133.913 Y59.931 F1000
G2 X-133.976 Y59.994 I2.212 J2.252 F1000
G1 X-134.489 Y60.527 F1000
G2 X-135.085 Y61.403 I2.275 J2.189 F1000
G1 X-135.497 Y62.304 F1000
G2 X-135.523 Y62.363 I2.871 J1.313 F1000
G1 X-135.719 Y62.816 F1000
G2 X-135.747 Y62.882 I2.897 J1.254 F1000
G1 X-135.932 Y63.338 F1000
G2 X-135.968 Y63.429 I2.925 J1.188 F1000
G1 X-136.138 Y63.888 F1000
G2 X-136.181 Y64.013 I2.961 J1.096 F1000
G1 X-136.331 Y64.477 F1000
G2 X-136.373 Y64.617 I3.004 J0.972 F1000
G1 X-136.501 Y65.086 F1000
G2 X-136.54 Y65.248 I3.046 J0.831 F1000
G1 X-136.643 Y65.723 F1000
G2 X-136.671 Y65.867 I3.085 J0.669 F1000
G1 X-136.752 Y66.347 F1000
G2 X-136.771 Y66.471 I3.113 J0.525 F1000
G1 X-136.833 Y66.956 F1000
G2 X-136.845 Y67.067 I3.132 J0.401 F1000
G1 X-136.89 Y67.555 F1000
G2 X-136.896 Y67.64 I3.144 J0.29 F1000
G1 X-136.928 Y68.132 F1000
G2 X-136.933 Y68.232 I3.15 J0.205 F1000
G1 X-136.966 Y69.222 F1000
G2 X-136.968 Y69.296 I3.155 J0.105 F1000
G1 X-136.978 Y70.291 F1000
G2 Y70.323 I3.157 J0.032 F1000
G1 Y74.18 F1000
G2 Y74.216 I3.157 F1000
G1 X-136.967 Y75.19 F1000
G2 X-136.965 Y75.265 I3.157 J-0.036 F1000
G1 X-136.931 Y76.234 F1000
G2 X-136.926 Y76.333 I3.155 J-0.111 F1000
G1 X-136.894 Y76.813 F1000
G2 X-136.887 Y76.907 I3.15 J-0.21 F1000
G1 X-136.84 Y77.384 F1000
G2 X-136.828 Y77.491 I3.143 J-0.303 F1000
G1 X-136.766 Y77.965 F1000
G2 X-136.746 Y78.099 I3.13 J-0.41 F1000
G1 X-136.664 Y78.568 F1000
G2 X-136.636 Y78.708 I3.11 J-0.544 F1000
G1 X-136.533 Y79.172 F1000
G2 X-136.491 Y79.337 I3.082 J-0.685 F1000
G1 X-136.363 Y79.795 F1000
G2 X-136.32 Y79.939 I3.04 J-0.85 F1000
G1 X-136.17 Y80.391 F1000
G2 X-136.127 Y80.512 I2.997 J-0.994 F1000
G1 X-135.958 Y80.96 F1000
G2 X-135.921 Y81.053 I2.954 J-1.115 F1000
G1 X-135.737 Y81.498 F1000
G2 X-135.705 Y81.57 I2.917 J-1.208 F1000
G1 X-135.509 Y82.012 F1000
G2 X-135.485 Y82.066 I2.885 J-1.281 F1000
G1 X-135.075 Y82.944 F1000
G2 X-134.47 Y83.817 I2.861 J-1.335 F1000
G1 X-133.955 Y84.343 F1000
G2 X-133.889 Y84.409 I2.256 J-2.208 F1000
G1 X-133.626 Y84.663 F1000
G2 X-133.547 Y84.735 I2.19 J-2.274 F1000
G1 X-133.279 Y84.976 F1000
G2 X-133.163 Y85.076 I2.111 J-2.347 F1000
G1 X-132.887 Y85.301 F1000
G2 X-132.735 Y85.417 I1.995 J-2.447 F1000
G1 X-132.451 Y85.622 F1000
G2 X-132.249 Y85.756 I1.844 J-2.563 F1000
G1 X-131.952 Y85.937 F1000
G2 X-131.708 Y86.071 I1.642 J-2.696 F1000
G1 X-131.398 Y86.224 F1000
G2 X-131.138 Y86.338 I1.398 J-2.831 F1000
G1 X-130.815 Y86.463 F1000
G2 X-130.579 Y86.544 I1.138 J-2.945 F1000
G1 X-130.244 Y86.644 F1000
G2 X-130.043 Y86.696 I0.902 J-3.025 F1000
G1 X-129.698 Y86.775 F1000
G2 X-129.532 Y86.808 I0.701 J-3.078 F1000
G1 X-129.178 Y86.869 F1000
G2 X-129.048 Y86.889 I0.535 J-3.111 F1000
G1 X-128.688 Y86.935 F1000
G2 X-128.593 Y86.946 I0.405 J-3.131 F1000
G1 X-128.228 Y86.982 F1000
G2 X-128.149 Y86.989 I0.31 J-3.142 F1000
G1 X-127.41 Y87.043 F1000
G2 X-126.945 I0.231 J-3.149 F1000
G1 X-126.203 Y86.988 F1000
G2 X-126.125 Y86.981 I-0.234 J-3.148 F1000
G1 X-125.758 Y86.945 F1000
G2 X-125.664 Y86.934 I-0.312 J-3.142 F1000
G1 X-125.302 Y86.887 F1000
G2 X-125.172 Y86.867 I-0.406 J-3.131 F1000
G1 X-124.817 Y86.806 F1000
G2 X-124.653 Y86.773 I-0.536 J-3.111 F1000
G1 X-124.306 Y86.694 F1000
G2 X-124.106 Y86.642 I-0.7 J-3.078 F1000
G1 X-123.769 Y86.542 F1000
G2 X-123.539 Y86.463 I-0.9 J-3.026 F1000
G1 X-123.213 Y86.338 F1000
G2 X-122.952 Y86.225 I-1.13 J-2.948 F1000
G1 X-122.64 Y86.071 F1000
G2 X-122.397 Y85.939 I-1.391 J-2.834 F1000
G1 X-122.098 Y85.758 F1000
G2 X-121.902 Y85.629 I-1.634 J-2.701 F1000
G1 X-121.614 Y85.425 F1000
G2 X-121.459 Y85.307 I-1.83 J-2.573 F1000
G1 X-121.181 Y85.082 F1000
G2 X-121.074 Y84.991 I-1.985 J-2.455 F1000
G1 X-120.802 Y84.751 F1000
G2 X-120.716 Y84.672 I-2.092 J-2.364 F1000
G1 X-120.451 Y84.419 F1000
G2 X-120.39 Y84.36 I-2.178 J-2.285 F1000
G1 X-119.868 Y83.835 F1000
G2 X-119.258 Y82.968 I-2.239 J-2.226 F1000
G1 X-118.84 Y82.092 F1000
G2 X-118.814 Y82.038 I-2.849 J-1.359 F1000
G1 X-118.614 Y81.597 F1000
G2 X-118.583 Y81.525 I-2.875 J-1.305 F1000
G1 X-118.395 Y81.081 F1000
G2 X-118.357 Y80.988 I-2.906 J-1.233 F1000
G1 X-118.184 Y80.541 F1000
G2 X-118.138 Y80.414 I-2.944 J-1.139 F1000
G1 X-117.985 Y79.963 F1000
G2 X-117.94 Y79.819 I-2.99 J-1.013 F1000
G1 X-117.809 Y79.362 F1000
G2 X-117.765 Y79.19 I-3.035 J-0.869 F1000
G1 X-117.66 Y78.727 F1000
G2 X-117.631 Y78.585 I-3.079 J-0.698 F1000
G1 X-117.547 Y78.116 F1000
G2 X-117.525 Y77.976 I-3.108 J-0.556 F1000
G1 X-117.462 Y77.502 F1000
G2 X-117.45 Y77.395 I-3.13 J-0.416 F1000
G1 X-117.403 Y76.917 F1000
G2 X-117.395 Y76.824 I-3.142 J-0.309 F1000
G1 X-117.362 Y76.342 F1000
G2 X-117.357 Y76.24 I-3.15 J-0.216 F1000
G1 X-117.322 Y75.27 F1000
G2 X-117.32 Y75.198 I-3.155 J-0.114 F1000
G1 X-117.307 Y74.222 F1000
G2 Y74.18 I-3.157 J-0.042 F1000
G1 Y72.644 F1000
G1 Z5 F1000
G1 X-111.336 F1000
; MOVEMENT_LEAD_IN
G1 Z-5.468 F1000
; MOVEMENT_CUTTING
G1 Y70.425 F1000
G1 X-111.449 Y68.675 F1000
G1 X-111.523 Y67.813 F1000
G1 X-111.616 Y66.981 F1000
G1 X-111.736 Y66.165 F1000
G1 X-111.8 Y65.802 F1000
G1 X-111.875 Y65.435 F1000
G1 X-111.959 Y65.074 F1000
G1 X-112.05 Y64.728 F1000
G1 X-112.148 Y64.397 F1000
G1 X-112.258 Y64.071 F1000
G1 X-112.375 Y63.757 F1000
G1 X-112.506 Y63.446 F1000
G1 X-112.651 Y63.13 F1000
G1 X-112.809 Y62.814 F1000
G1 X-112.982 Y62.493 F1000
G1 X-113.168 Y62.169 F1000
G1 X-113.369 Y61.839 F1000
G1 X-113.575 Y61.516 F1000
G1 X-114.047 Y60.821 F1000
G1 X-114.546 Y60.128 F1000
G1 X-115.391 Y59.012 F1000
G1 X-116.559 Y58.138 F1000
G1 X-117.275 Y57.628 F1000
G1 X-117.996 Y57.147 F1000
G1 X-118.33 Y56.937 F1000
G1 X-118.672 Y56.732 F1000
G1 X-119.01 Y56.541 F1000
G1 X-119.341 Y56.367 F1000
G1 X-119.673 Y56.205 F1000
G1 X-119.998 Y56.059 F1000
G1 X-120.32 Y55.928 F1000
G1 X-120.65 Y55.809 F1000
G1 X-120.989 Y55.7 F1000
G1 X-121.339 Y55.6 F1000
G1 X-121.702 Y55.508 F1000
G1 X-122.076 Y55.425 F1000
G1 X-122.462 Y55.351 F1000
G1 X-122.842 Y55.286 F1000
G1 X-123.686 Y55.17 F1000
G1 X-124.551 Y55.082 F1000
G1 X-125.444 Y55.012 F1000
G1 X-127.179 Y54.914 F1000
G1 X-128.91 Y55.011 F1000
G1 X-129.802 Y55.08 F1000
G1 X-130.664 Y55.169 F1000
G1 X-131.506 Y55.284 F1000
G1 X-131.886 Y55.349 F1000
G1 X-132.271 Y55.423 F1000
G1 X-132.643 Y55.506 F1000
G1 X-133.004 Y55.597 F1000
G1 X-133.353 Y55.697 F1000
G1 X-133.69 Y55.806 F1000
G1 X-134.019 Y55.925 F1000
G1 X-134.34 Y56.055 F1000
G1 X-134.662 Y56.2 F1000
G1 X-134.991 Y56.361 F1000
G1 X-135.324 Y56.538 F1000
G1 X-135.66 Y56.728 F1000
G1 X-135.999 Y56.931 F1000
G1 X-136.332 Y57.141 F1000
G1 X-137.049 Y57.623 F1000
G1 X-137.763 Y58.133 F1000
G1 X-138.924 Y59.006 F1000
G1 X-139.761 Y60.121 F1000
G1 X-140.257 Y60.815 F1000
G1 X-140.726 Y61.512 F1000
G1 X-140.931 Y61.835 F1000
G1 X-141.129 Y62.163 F1000
G1 X-141.315 Y62.49 F1000
G1 X-141.489 Y62.813 F1000
G1 X-141.646 Y63.13 F1000
G1 X-141.789 Y63.443 F1000
G1 X-141.919 Y63.757 F1000
G1 X-142.037 Y64.071 F1000
G1 X-142.144 Y64.393 F1000
G1 X-142.242 Y64.728 F1000
G1 X-142.332 Y65.074 F1000
G1 X-142.415 Y65.435 F1000
G1 X-142.49 Y65.804 F1000
G1 X-142.555 Y66.169 F1000
G1 X-142.673 Y66.981 F1000
G1 X-142.765 Y67.812 F1000
G1 X-142.837 Y68.675 F1000
G1 X-142.95 Y70.424 F1000
G1 Y73.935 F1000
G1 X-142.837 Y75.672 F1000
G1 X-142.762 Y76.528 F1000
G1 X-142.669 Y77.358 F1000
G1 X-142.552 Y78.163 F1000
G1 X-142.486 Y78.525 F1000
G1 X-142.411 Y78.895 F1000
G1 X-142.329 Y79.251 F1000
G1 X-142.238 Y79.594 F1000
G1 X-142.139 Y79.929 F1000
G1 X-142.033 Y80.248 F1000
G1 X-141.916 Y80.56 F1000
G1 X-141.786 Y80.871 F1000
G1 X-141.643 Y81.181 F1000
G1 X-141.486 Y81.496 F1000
G1 X-141.313 Y81.816 F1000
G1 X-141.126 Y82.144 F1000
G1 X-140.929 Y82.47 F1000
G1 X-140.724 Y82.79 F1000
G1 X-140.257 Y83.483 F1000
G1 X-139.762 Y84.171 F1000
G1 X-138.926 Y85.282 F1000
G1 X-137.763 Y86.156 F1000
G1 X-137.049 Y86.666 F1000
G1 X-136.332 Y87.148 F1000
G1 X-135.999 Y87.358 F1000
G1 X-135.66 Y87.561 F1000
G1 X-135.324 Y87.751 F1000
G1 X-134.991 Y87.928 F1000
G1 X-134.662 Y88.089 F1000
G1 X-134.34 Y88.234 F1000
G1 X-134.019 Y88.364 F1000
G1 X-133.69 Y88.483 F1000
G1 X-133.353 Y88.592 F1000
G1 X-133.004 Y88.692 F1000
G1 X-132.643 Y88.783 F1000
G1 X-132.271 Y88.866 F1000
G1 X-131.886 Y88.94 F1000
G1 X-131.506 Y89.005 F1000
G1 X-130.664 Y89.12 F1000
G1 X-129.802 Y89.209 F1000
G1 X-128.91 Y89.278 F1000
G1 X-127.179 Y89.375 F1000
G1 X-125.444 Y89.277 F1000
G1 X-124.551 Y89.207 F1000
G1 X-123.686 Y89.118 F1000
G1 X-122.842 Y89.003 F1000
G1 X-122.462 Y88.938 F1000
G1 X-122.076 Y88.863 F1000
G1 X-121.702 Y88.78 F1000
G1 X-121.339 Y88.689 F1000
G1 X-120.989 Y88.589 F1000
G1 X-120.65 Y88.48 F1000
G1 X-120.321 Y88.361 F1000
G1 X-119.998 Y88.23 F1000
G1 X-119.672 Y88.084 F1000
G1 X-119.342 Y87.923 F1000
G1 X-119.01 Y87.748 F1000
G1 X-118.672 Y87.557 F1000
G1 X-118.329 Y87.352 F1000
G1 X-117.996 Y87.142 F1000
G1 X-117.275 Y86.661 F1000
G1 X-116.559 Y86.151 F1000
G1 X-115.389 Y85.275 F1000
G1 X-114.545 Y84.164 F1000
G1 X-114.047 Y83.477 F1000
G1 X-113.577 Y82.786 F1000
G1 X-113.372 Y82.466 F1000
G1 X-113.172 Y82.137 F1000
G1 X-112.984 Y81.813 F1000
G1 X-112.812 Y81.495 F1000
G1 X-112.654 Y81.181 F1000
G1 X-112.509 Y80.867 F1000
G1 X-112.379 Y80.56 F1000
G1 X-112.262 Y80.248 F1000
G1 X-112.153 Y79.925 F1000
G1 X-112.054 Y79.594 F1000
G1 X-111.963 Y79.25 F1000
G1 X-111.88 Y78.895 F1000
G1 X-111.804 Y78.528 F1000
G1 X-111.739 Y78.165 F1000
G1 X-111.619 Y77.358 F1000
G1 X-111.526 Y76.53 F1000
G1 X-111.451 Y75.672 F1000
G1 X-111.336 Y73.933 F1000
G1 Y72.644 F1000
G1 Z5 F1000
G1 X-156.907 Y99.737 F1000
; MOVEMENT_LEAD_IN
G1 Z-5.467 F1000
; MOVEMENT_CUTTING
G1 X-153.751 Y102.893 Z-0.001 F1000
G1 Z5 F1000
G1 X-184.535 F1000
; MOVEMENT_LEAD_IN
G1 Z-0.001 F1000
; MOVEMENT_CUTTING
G1 X-181.379 Y99.737 Z-5.467 F1000
G1 Z5 F1000
G1 X-184.535 Y93.966 F1000
; MOVEMENT_LEAD_IN
G1 Z-0.001 F1000
; MOVEMENT_CUTTING
G1 X-181.379 Y97.122 Z-5.467 F1000
G1 Z5 F1000
G1 X-187.678 Y57.466 F1000
; MOVEMENT_LEAD_IN
G1 Z-0.002 F1000
; MOVEMENT_CUTTING
G1 X-186.219 Y57.606 Z-1.738 F1000
G1 X-184.796 Y57.748 Z-3.424 F1000
G1 X-183.444 Y57.897 Z-5.012 F1000
G1 X-183.05 Y57.946 Z-5.468 F1000
G1 X-182.494 Y57.565 F1000
G1 X-182.117 Y57.322 F1000
G1 X-181.735 Y57.086 F1000
G1 X-181.355 Y56.866 F1000
G1 X-180.979 Y56.66 F1000
G1 X-180.607 Y56.471 F1000
G1 X-180.238 Y56.299 F1000
G1 X-179.87 Y56.143 F1000
G1 X-179.498 Y56.002 F1000
G1 X-179.118 Y55.873 F1000
G1 X-178.724 Y55.754 F1000
G1 X-178.318 Y55.646 F1000
G1 X-177.9 Y55.547 F1000
G1 X-177.47 Y55.458 F1000
G1 X-177.027 Y55.377 F1000
G1 X-176.573 Y55.305 F1000
G1 X-176.12 Y55.242 F1000
G1 X-175.144 Y55.131 F1000
G1 X-174.153 Y55.043 F1000
G1 X-172.216 Y54.913 F1000
G1 X-171.135 Y54.962 F1000
G1 X-170.544 Y54.997 F1000
G1 X-169.969 Y55.04 F1000
G1 X-169.415 Y55.093 F1000
G1 X-168.881 Y55.16 F1000
G1 X-168.369 Y55.24 F1000
G1 X-167.879 Y55.337 F1000
G1 X-167.4 Y55.454 F1000
G1 X-166.913 Y55.595 F1000
G1 X-166.413 Y55.759 F1000
G1 X-165.897 Y55.946 F1000
G1 X-165.366 Y56.153 F1000
G1 X-164.824 Y56.375 F1000
G1 X-163.886 Y56.776 F1000
G1 X-163.144 Y57.234 F1000
G1 X-162.716 Y57.508 F1000
G1 X-162.306 Y57.781 F1000
G1 X-161.923 Y58.052 F1000
G1 X-161.568 Y58.319 F1000
G1 X-161.244 Y58.584 F1000
G1 X-160.948 Y58.851 F1000
G1 X-160.665 Y59.133 F1000
G1 X-160.384 Y59.441 F1000
G1 X-160.102 Y59.777 F1000
G1 X-159.814 Y60.144 F1000
G1 X-159.523 Y60.536 F1000
G1 X-159.229 Y60.949 F1000
G1 X-158.742 Y61.658 F1000
G1 X-158.36 Y62.456 F1000
G1 X-158.142 Y62.933 F1000
G1 X-157.938 Y63.4 F1000
G1 X-157.757 Y63.846 F1000
G1 X-157.597 Y64.278 F1000
G1 X-157.46 Y64.698 F1000
G1 X-157.347 Y65.105 F1000
G1 X-157.253 Y65.518 F1000
G1 X-157.173 Y65.956 F1000
G1 X-157.106 Y66.419 F1000
G1 X-157.051 Y66.906 F1000
G1 X-157.005 Y67.416 F1000
G1 X-156.967 Y67.941 F1000
G1 X-156.907 Y68.984 F1000
G1 Y99.737 F1000
G1 X-181.379 F1000
G1 Y97.123 F1000
G1 X-166.25 F1000
G2 X-163.093 Y93.966 J-3.157 F1000
G1 Y68.18 F1000
G2 X-163.097 Y68.019 I-3.157 F1000
G1 X-163.137 Y67.238 F1000
G2 X-163.141 Y67.172 I-3.153 J0.162 F1000
G1 X-163.169 Y66.785 F1000
G2 X-163.176 Y66.71 I-3.149 J0.228 F1000
G1 X-163.213 Y66.326 F1000
G2 X-163.225 Y66.216 I-3.142 J0.303 F1000
G1 X-163.275 Y65.838 F1000
G2 X-163.296 Y65.7 I-3.13 J0.413 F1000
G1 X-163.362 Y65.328 F1000
G2 X-163.396 Y65.163 I-3.109 J0.551 F1000
G1 X-163.481 Y64.798 F1000
G2 X-163.534 Y64.599 I-3.075 J0.715 F1000
G1 X-163.642 Y64.242 F1000
G2 X-163.716 Y64.027 I-3.022 J0.914 F1000
G1 X-163.849 Y63.68 F1000
G2 X-163.937 Y63.47 I-2.948 J1.128 F1000
G1 X-164.095 Y63.133 F1000
G2 X-164.192 Y62.943 I-2.86 J1.338 F1000
G1 X-164.374 Y62.614 F1000
G2 X-164.455 Y62.476 I-2.763 J1.527 F1000
G1 X-164.655 Y62.154 F1000
G2 X-164.726 Y62.045 I-2.682 J1.665 F1000
G1 X-164.941 Y61.729 F1000
G2 X-164.995 Y61.651 I-2.611 J1.774 F1000
G1 X-165.221 Y61.339 F1000
G2 X-165.27 Y61.273 I-2.557 J1.851 F1000
G1 X-165.742 Y60.656 F1000
G2 X-166.375 Y60.033 I-2.508 J1.917 F1000
G1 X-166.955 Y59.605 F1000
G2 X-167.017 Y59.56 I-1.875 J2.54 F1000
G1 X-167.311 Y59.354 F1000
G2 X-167.376 Y59.31 I-1.813 J2.585 F1000
G1 X-167.672 Y59.113 F1000
G2 X-167.776 Y59.047 I-1.748 J2.629 F1000
G1 X-168.078 Y58.862 F1000
G2 X-168.204 Y58.79 I-1.644 J2.695 F1000
G1 X-168.511 Y58.621 F1000
G2 X-168.672 Y58.539 I-1.518 J2.768 F1000
G1 X-168.986 Y58.389 F1000
G2 X-169.181 Y58.304 I-1.357 J2.85 F1000
G1 X-169.503 Y58.177 F1000
G2 X-169.714 Y58.102 I-1.162 J2.935 F1000
G1 X-170.045 Y57.997 F1000
G2 X-170.233 Y57.944 I-0.951 J3.01 F1000
G1 X-170.572 Y57.86 F1000
G2 X-170.733 Y57.824 I-0.763 J3.064 F1000
G1 X-171.078 Y57.757 F1000
G2 X-171.211 Y57.734 I-0.602 J3.099 F1000
G1 X-171.561 Y57.682 F1000
G2 X-171.707 Y57.663 I-0.469 J3.122 F1000
G1 X-172.42 Y57.59 F1000
G2 X-172.524 Y57.581 I-0.323 J3.14 F1000
G1 X-173.245 Y57.531 F1000
G2 X-173.593 Y57.526 I-0.219 J3.149 F1000
G1 X-174.172 Y57.549 F1000
G2 X-174.229 Y57.552 I0.129 J3.154 F1000
G1 X-174.806 Y57.586 F1000
G2 X-174.922 Y57.595 I0.186 J3.152 F1000
G1 X-175.494 Y57.65 F1000
G2 X-175.666 Y57.672 I0.302 J3.143 F1000
G1 X-176.233 Y57.758 F1000
G2 X-176.451 Y57.799 I0.474 J3.121 F1000
G1 X-177.01 Y57.924 F1000
G2 X-177.192 Y57.971 I0.692 J3.08 F1000
G1 X-177.744 Y58.13 F1000
G2 X-177.862 Y58.166 I0.874 J3.034 F1000
G1 X-178.41 Y58.348 F1000
G2 X-178.468 Y58.367 I0.992 J2.997 F1000
G1 X-179.014 Y58.56 F1000
G2 X-179.371 Y58.711 I1.05 J2.977 F1000
G1 X-180.419 Y59.233 F1000
G2 X-180.523 Y59.287 I1.407 J2.826 F1000
G1 X-181.035 Y59.566 F1000
G2 X-181.156 Y59.636 I1.511 J2.772 F1000
G1 X-181.421 Y59.796 F1000
G1 X-183.05 Y57.946 F1000
G1 X-181.421 Y59.796 F1000
G1 X-181.486 Y60.215 Z-4.905 F1000
G1 X-181.516 Y60.427 Z-4.622 F1000
G1 X-181.642 Y61.422 Z-3.32 F1000
G1 X-181.74 Y62.344 Z-2.137 F1000
G1 X-181.893 Y64.037 Z-0.001 F1000
G1 Z30 F1000
; *** SECTION end ***
;
; *** STOP begin ***
M400
; COMMAND_COOLANT_OFF
G0 X0 Y0 F2500
; COMMAND_STOP_SPINDLE
M300 S300 P3000
M0 Turn OFF spindle
M117 Job end
; *** STOP end ***
